;FLAVOR:Marlin
;TIME:14889
;Filament used: 13.5907m
;Layer height: 0.28
;MINX:47.5
;MINY:48.5
;MINZ:0.28
;MAXX:186.5
;MAXY:186.5
;MAXZ:6.76
;Generated with Cura_SteamEngine 5.4.0
M140 S95
M105
M190 S95
M104 S255
M105
M109 S255
M82 ;absolute extrusion mode
M201 X500.00 Y500.00 Z100.00 E5000.00 ;Setup machine max acceleration
M203 X500.00 Y500.00 Z10.00 E50.00 ;Setup machine max feedrate
M204 P500.00 R1000.00 T500.00 ;Setup Print/Retract/Travel acceleration
M205 X8.00 Y8.00 Z0.40 E5.00 ;Setup Jerk
M220 S100 ;Reset Feedrate
M221 S100 ;Reset Flowrate

G28 ;Home

G92 E0 ;Reset Extruder
G1 Z2.0 F3000 ;Move Z Axis up
G1 X10.1 Y20 Z0.28 F5000.0 ;Move to start position
G1 X10.1 Y200.0 Z0.28 F1500.0 E15 ;Draw the first line
G1 X10.4 Y200.0 Z0.28 F5000.0 ;Move to side a little
G1 X10.4 Y20 Z0.28 F1500.0 E30 ;Draw the second line
G92 E0 ;Reset Extruder
G1 Z2.0 F3000 ;Move Z Axis up

G92 E0
G92 E0
G1 F1500 E-6.5
;LAYER_COUNT:28
;LAYER:0
M107
G0 F6000 X55.364 Y52.082 Z0.28
;TYPE:SKIRT
G1 F1500 E0
G1 F1200 X55.876 Y51.586 E0.03319
G1 X56.579 Y50.964 E0.0769
G1 X57.391 Y50.366 E0.12386
G1 X58.225 Y49.86 E0.16928
G1 X59.098 Y49.432 E0.21455
G1 X60.007 Y49.082 E0.25991
G1 X60.944 Y48.812 E0.30532
G1 X61.917 Y48.626 E0.35144
G1 X63.256 Y48.514 E0.41401
G1 X64.049 Y48.5 E0.45094
G1 X92.803 Y48.5 E1.78985
G1 X93.673 Y48.511 E1.83036
G1 X94.521 Y48.544 E1.86988
G1 X96.165 Y48.637 E1.94655
G1 X98.731 Y48.71 E2.06609
G1 X101.221 Y48.712 E2.18203
G1 X103.783 Y48.64 E2.30138
G1 X105.932 Y48.526 E2.40158
G1 X106.893 Y48.501 E2.44635
G1 X127.803 Y48.5 E3.42
G1 X128.673 Y48.511 E3.46052
G1 X129.521 Y48.544 E3.50003
G1 X131.165 Y48.637 E3.57671
G1 X133.731 Y48.71 E3.69624
G1 X136.221 Y48.712 E3.81218
G1 X138.784 Y48.64 E3.93158
G1 X140.954 Y48.524 E4.03276
G1 X141.893 Y48.501 E4.0765
G1 X170.804 Y48.5 E5.42272
G1 X171.687 Y48.513 E5.46384
G1 X172.659 Y48.572 E5.50918
G1 X173.622 Y48.718 E5.55454
G1 X174.569 Y48.949 E5.59993
G1 X175.49 Y49.262 E5.64522
G1 X176.382 Y49.656 E5.69063
G1 X177.235 Y50.127 E5.736
G1 X178.053 Y50.68 E5.78198
G1 X179.064 Y51.528 E5.84342
G1 X179.588 Y52.031 E5.87724
G1 X182.804 Y55.246 E6.08899
G1 X183.406 Y55.866 E6.12923
G1 X184.006 Y56.541 E6.17128
G1 X184.629 Y57.381 E6.21998
G1 X185.117 Y58.182 E6.26365
G1 X185.565 Y59.087 E6.31067
G1 X185.915 Y59.996 E6.35603
G1 X186.184 Y60.931 E6.40133
G1 X186.371 Y61.887 E6.44669
G1 X186.471 Y62.838 E6.49122
G1 X186.49 Y63.328 E6.51405
G1 X186.499 Y63.898 E6.5406
G1 X186.5 Y170.768 E11.51691
G1 X186.487 Y171.679 E11.55934
G1 X186.429 Y172.652 E11.60472
G1 X186.283 Y173.615 E11.65008
G1 X186.053 Y174.562 E11.69546
G1 X185.74 Y175.484 E11.74079
G1 X185.348 Y176.375 E11.78612
G1 X184.878 Y177.227 E11.83143
G1 X184.353 Y178.01 E11.87533
G1 X183.567 Y178.963 E11.93285
G1 X183.132 Y179.421 E11.96226
G1 X179.764 Y182.793 E12.18418
G1 X179.153 Y183.387 E12.22386
G1 X178.395 Y184.056 E12.27094
G1 X177.611 Y184.632 E12.31624
G1 X176.778 Y185.137 E12.3616
G1 X175.904 Y185.567 E12.40695
G1 X174.996 Y185.917 E12.45226
G1 X174.058 Y186.187 E12.49772
G1 X173.087 Y186.373 E12.54375
G1 X171.746 Y186.486 E12.60641
G1 X170.938 Y186.5 E12.64404
G1 X142.049 Y186.499 E13.98924
G1 X141.034 Y186.48 E14.03651
G1 X138.835 Y186.363 E14.13905
G1 X136.269 Y186.29 E14.25858
G1 X133.779 Y186.288 E14.37452
G1 X131.216 Y186.36 E14.49392
G1 X129.046 Y186.476 E14.5951
G1 X128.107 Y186.499 E14.63884
G1 X107.197 Y186.5 E15.6125
G1 X106.327 Y186.489 E15.65301
G1 X105.479 Y186.456 E15.69253
G1 X103.835 Y186.363 E15.7692
G1 X101.269 Y186.29 E15.88873
G1 X98.779 Y186.288 E16.00468
G1 X96.216 Y186.36 E16.12407
G1 X94.046 Y186.476 E16.22526
G1 X93.107 Y186.499 E16.269
G1 X64.196 Y186.5 E17.61521
G1 X63.314 Y186.487 E17.65629
G1 X62.342 Y186.428 E17.70163
G1 X61.379 Y186.282 E17.74698
G1 X60.431 Y186.051 E17.79242
G1 X59.575 Y185.763 E17.83447
G1 X58.619 Y185.344 E17.88308
G1 X57.766 Y184.873 E17.92845
G1 X56.954 Y184.324 E17.97409
G1 X56.065 Y183.591 E18.02774
G1 X55.579 Y183.132 E18.05887
G1 X52.199 Y179.756 E18.28132
G1 X51.597 Y179.136 E18.32156
G1 X50.942 Y178.391 E18.36775
G1 X50.355 Y177.592 E18.41391
G1 X49.684 Y176.438 E18.47607
G1 X48.646 Y174.354 E18.58448
G1 X48.254 Y173.463 E18.62981
G1 X47.952 Y172.574 E18.67353
G1 X47.721 Y171.628 E18.71887
G1 X47.571 Y170.635 E18.76564
G1 X47.515 Y169.816 E18.80386
G1 X47.5 Y169.159 E18.83446
G1 X47.501 Y168.012 E18.88787
G1 X47.514 Y167.279 E18.92201
G1 X47.6 Y166.101 E18.97701
G1 X47.806 Y164.495 E19.0524
G1 X48.088 Y161.939 E19.17214
G1 X48.297 Y159.408 E19.2904
G1 X48.427 Y156.968 E19.40417
G1 X48.5 Y153.287 E19.57561
G1 X48.501 Y142.049 E20.0989
G1 X48.52 Y141.033 E20.14622
G1 X48.637 Y138.835 E20.24871
G1 X48.71 Y136.269 E20.36824
G1 X48.712 Y133.757 E20.48521
G1 X48.64 Y131.216 E20.60358
G1 X48.524 Y129.046 E20.70477
G1 X48.501 Y128.109 E20.74841
G1 X48.5 Y107.197 E21.72216
G1 X48.511 Y106.326 E21.76272
G1 X48.544 Y105.479 E21.80219
G1 X48.637 Y103.835 E21.87886
G1 X48.71 Y101.269 E21.9984
G1 X48.712 Y98.757 E22.11537
G1 X48.64 Y96.217 E22.23369
G1 X48.524 Y94.047 E22.33487
G1 X48.501 Y93.109 E22.37857
G1 X48.5 Y81.6 E22.91447
G1 X48.463 Y79.006 E23.03527
G1 X48.354 Y76.462 E23.15384
G1 X48.178 Y73.977 E23.26984
G1 X47.933 Y71.502 E23.38565
G1 X47.593 Y68.833 E23.51094
G1 X47.513 Y67.784 E23.55992
G1 X47.5 Y67.094 E23.59206
G1 X47.512 Y65.411 E23.67043
G1 X47.564 Y64.439 E23.71575
G1 X47.701 Y63.476 E23.76105
G1 X47.904 Y62.596 E23.8031
G1 X48.231 Y61.597 E23.85204
G1 X48.64 Y60.658 E23.89974
G1 X49.669 Y58.586 E24.00746
G1 X50.142 Y57.736 E24.05275
G1 X50.647 Y56.987 E24.09482
G1 X51.48 Y55.987 E24.15542
G1 X51.868 Y55.58 E24.1816
G1 X55.364 Y52.082 E24.41189
G0 F6000 X55.642 Y52.369
G1 F1200 X56.141 Y51.886 E24.44423
G1 X56.844 Y51.264 E24.48793
G1 X57.599 Y50.708 E24.53159
G1 X58.402 Y50.219 E24.57537
G1 X59.243 Y49.805 E24.61902
G1 X60.118 Y49.466 E24.66272
G1 X61.02 Y49.205 E24.70644
G1 X61.95 Y49.025 E24.75055
G1 X63.289 Y48.913 E24.81312
G1 X64.056 Y48.9 E24.84883
G1 X92.798 Y48.9 E26.18718
G1 X93.658 Y48.911 E26.22723
G1 X94.498 Y48.943 E26.26637
G1 X96.154 Y49.037 E26.34361
G1 X98.72 Y49.11 E26.46314
G1 X101.232 Y49.112 E26.58011
G1 X103.794 Y49.04 E26.69945
G1 X105.953 Y48.925 E26.80013
G1 X106.893 Y48.901 E26.84391
G1 X127.798 Y48.9 E27.81734
G1 X128.658 Y48.911 E27.85739
G1 X129.498 Y48.943 E27.89653
G1 X131.154 Y49.037 E27.97376
G1 X133.72 Y49.11 E28.09329
G1 X136.232 Y49.112 E28.21026
G1 X138.795 Y49.04 E28.32966
G1 X140.964 Y48.924 E28.4308
G1 X141.893 Y48.901 E28.47407
G1 X170.798 Y48.9 E29.82001
G1 X171.663 Y48.912 E29.86029
G1 X172.6 Y48.968 E29.904
G1 X173.528 Y49.107 E29.94769
G1 X174.441 Y49.328 E29.99143
G1 X175.329 Y49.628 E30.03508
G1 X176.189 Y50.006 E30.07882
G1 X177.012 Y50.459 E30.12256
G1 X177.796 Y50.987 E30.16658
G1 X178.787 Y51.817 E30.22677
G1 X179.305 Y52.314 E30.2602
G1 X182.517 Y55.525 E30.47168
G1 X183.107 Y56.132 E30.51109
G1 X183.707 Y56.807 E30.55315
G1 X184.287 Y57.589 E30.59848
G1 X184.775 Y58.39 E30.64216
G1 X185.192 Y59.232 E30.68591
G1 X185.531 Y60.107 E30.7296
G1 X185.792 Y61.008 E30.77328
G1 X185.973 Y61.929 E30.81699
G1 X186.071 Y62.854 E30.8603
G1 X186.09 Y63.334 E30.88267
G1 X186.099 Y63.898 E30.90894
G1 X186.1 Y170.763 E35.88502
G1 X186.088 Y171.656 E35.9266
G1 X186.033 Y172.593 E35.97031
G1 X185.894 Y173.521 E36.014
G1 X185.674 Y174.434 E36.05773
G1 X185.374 Y175.323 E36.10142
G1 X184.997 Y176.182 E36.1451
G1 X184.545 Y177.005 E36.18882
G1 X184.044 Y177.755 E36.23082
G1 X183.258 Y178.708 E36.28834
G1 X182.849 Y179.138 E36.31598
G1 X179.485 Y182.506 E36.53763
G1 X178.874 Y183.1 E36.57731
G1 X178.158 Y183.734 E36.62185
G1 X177.403 Y184.29 E36.66551
G1 X176.601 Y184.778 E36.70922
G1 X175.759 Y185.194 E36.75295
G1 X174.885 Y185.533 E36.7966
G1 X173.982 Y185.794 E36.84037
G1 X173.053 Y185.974 E36.88443
G1 X171.712 Y186.087 E36.9471
G1 X170.938 Y186.1 E36.98314
G1 X142.056 Y186.099 E38.32801
G1 X141.055 Y186.081 E38.37463
G1 X138.846 Y185.963 E38.47764
G1 X136.28 Y185.89 E38.59717
G1 X133.768 Y185.888 E38.71414
G1 X131.205 Y185.96 E38.83353
G1 X129.036 Y186.076 E38.93467
G1 X128.107 Y186.099 E38.97794
G1 X107.202 Y186.1 E39.95137
G1 X106.342 Y186.089 E39.99142
G1 X105.502 Y186.057 E40.03056
G1 X103.846 Y185.963 E40.10779
G1 X101.28 Y185.89 E40.22732
G1 X98.768 Y185.888 E40.34429
G1 X96.205 Y185.96 E40.46368
G1 X94.036 Y186.076 E40.56483
G1 X93.107 Y186.099 E40.6081
G1 X64.202 Y186.1 E41.95404
G1 X63.338 Y186.088 E41.99427
G1 X62.401 Y186.032 E42.03798
G1 X61.473 Y185.893 E42.08167
G1 X60.559 Y185.672 E42.12546
G1 X59.703 Y185.384 E42.16751
G1 X58.812 Y184.994 E42.2128
G1 X57.989 Y184.541 E42.25655
G1 X57.208 Y184.015 E42.30039
G1 X56.319 Y183.282 E42.35404
G1 X55.862 Y182.849 E42.38336
G1 X52.486 Y179.477 E42.60554
G1 X51.897 Y178.871 E42.64489
G1 X51.264 Y178.154 E42.68943
G1 X50.701 Y177.391 E42.73358
G1 X50.03 Y176.237 E42.79574
G1 X49.012 Y174.192 E42.90211
G1 X48.633 Y173.334 E42.94579
G1 X48.341 Y172.479 E42.98786
G1 X48.11 Y171.533 E43.0332
G1 X47.97 Y170.608 E43.07676
G1 X47.915 Y169.807 E43.11415
G1 X47.9 Y169.159 E43.14433
G1 X47.901 Y168.019 E43.19741
G1 X47.913 Y167.308 E43.23053
G1 X47.997 Y166.152 E43.2845
G1 X48.203 Y164.546 E43.35989
G1 X48.486 Y161.983 E43.47996
G1 X48.695 Y159.441 E43.59873
G1 X48.827 Y156.976 E43.71367
G1 X48.9 Y153.295 E43.88511
G1 X48.901 Y142.056 E44.40844
G1 X48.919 Y141.054 E44.45511
G1 X49.037 Y138.846 E44.55807
G1 X49.11 Y136.28 E44.6776
G1 X49.112 Y133.757 E44.79508
G1 X49.04 Y131.205 E44.91396
G1 X48.924 Y129.036 E45.0151
G1 X48.901 Y128.109 E45.05828
G1 X48.9 Y107.202 E46.0318
G1 X48.911 Y106.341 E46.07189
G1 X48.943 Y105.502 E46.11099
G1 X49.037 Y103.846 E46.18822
G1 X49.11 Y101.28 E46.30776
G1 X49.112 Y98.757 E46.42524
G1 X49.04 Y96.206 E46.54407
G1 X48.924 Y94.037 E46.64521
G1 X48.901 Y93.109 E46.68844
G1 X48.9 Y81.6 E47.22434
G1 X48.863 Y79 E47.34542
G1 X48.754 Y76.445 E47.4645
G1 X48.577 Y73.949 E47.58102
G1 X48.33 Y71.451 E47.6979
G1 X47.992 Y68.802 E47.82225
G1 X47.913 Y67.776 E47.87017
G1 X47.9 Y67.097 E47.90179
G1 X47.911 Y65.432 E47.97932
G1 X47.96 Y64.495 E48.02301
G1 X48.091 Y63.566 E48.0667
G1 X48.294 Y62.686 E48.10875
G1 X48.598 Y61.757 E48.15427
G1 X49.007 Y60.818 E48.20196
G1 X50.019 Y58.78 E48.30791
G1 X50.474 Y57.96 E48.35158
G1 X50.979 Y57.211 E48.39364
G1 X51.77 Y56.263 E48.45113
G1 X52.151 Y55.863 E48.47686
G1 X55.642 Y52.369 E48.70684
G0 F6000 X55.92 Y52.656
G1 F1200 X56.406 Y52.185 E48.73836
G1 X57.082 Y51.586 E48.78041
G1 X57.808 Y51.049 E48.82246
G1 X58.579 Y50.578 E48.86453
G1 X59.388 Y50.178 E48.90655
G1 X60.23 Y49.85 E48.94863
G1 X61.097 Y49.598 E48.99067
G1 X61.983 Y49.424 E49.03272
G1 X63.322 Y49.312 E49.09528
G1 X64.062 Y49.3 E49.12975
G1 X92.793 Y49.3 E50.46758
G1 X93.643 Y49.311 E50.50717
G1 X94.475 Y49.342 E50.54593
G1 X96.143 Y49.437 E50.62373
G1 X98.709 Y49.51 E50.74326
G1 X101.243 Y49.512 E50.86125
G1 X103.805 Y49.44 E50.9806
G1 X105.974 Y49.324 E51.08174
G1 X106.893 Y49.301 E51.12455
G1 X127.793 Y49.3 E52.09774
G1 X128.643 Y49.311 E52.13732
G1 X129.475 Y49.342 E52.17609
G1 X131.143 Y49.437 E52.25388
G1 X133.709 Y49.51 E52.37342
G1 X136.243 Y49.512 E52.49141
G1 X138.806 Y49.44 E52.6108
G1 X140.974 Y49.324 E52.7119
G1 X141.893 Y49.301 E52.7547
G1 X170.793 Y49.3 E54.10041
G1 X171.64 Y49.311 E54.13985
G1 X172.542 Y49.364 E54.18192
G1 X173.435 Y49.496 E54.22396
G1 X174.313 Y49.707 E54.26601
G1 X175.169 Y49.995 E54.30806
G1 X175.997 Y50.357 E54.35014
G1 X176.789 Y50.791 E54.39219
G1 X177.539 Y51.294 E54.43424
G1 X178.53 Y52.124 E54.49443
G1 X179.022 Y52.597 E54.52621
G1 X182.23 Y55.804 E54.73743
G1 X182.808 Y56.398 E54.77603
G1 X183.408 Y57.073 E54.81808
G1 X183.946 Y57.798 E54.86012
G1 X184.417 Y58.568 E54.90215
G1 X184.819 Y59.377 E54.94421
G1 X185.147 Y60.219 E54.98629
G1 X185.4 Y61.086 E55.02834
G1 X185.575 Y61.972 E55.0704
G1 X185.671 Y62.87 E55.11245
G1 X185.69 Y63.34 E55.13435
G1 X185.699 Y63.898 E55.16034
G1 X185.7 Y170.758 E60.13619
G1 X185.689 Y171.633 E60.17694
G1 X185.637 Y172.535 E60.21901
G1 X185.505 Y173.428 E60.26104
G1 X185.295 Y174.307 E60.30312
G1 X185.008 Y175.163 E60.34516
G1 X184.646 Y175.99 E60.3872
G1 X184.212 Y176.783 E60.42929
G1 X183.711 Y177.533 E60.47129
G1 X182.968 Y178.432 E60.5256
G1 X182.566 Y178.855 E60.55277
G1 X179.206 Y182.219 E60.77416
G1 X178.595 Y182.813 E60.81384
G1 X177.92 Y183.412 E60.85586
G1 X177.194 Y183.949 E60.89791
G1 X176.423 Y184.42 E60.93998
G1 X175.614 Y184.821 E60.98203
G1 X174.773 Y185.149 E61.02406
G1 X173.905 Y185.401 E61.06615
G1 X173.019 Y185.575 E61.10819
G1 X171.678 Y185.688 E61.17085
G1 X170.938 Y185.7 E61.20532
G1 X142.063 Y185.699 E62.54986
G1 X141.072 Y185.681 E62.59601
G1 X140.525 Y185.658 E62.6215
G1 X138.857 Y185.563 E62.6993
G1 X136.291 Y185.49 E62.81883
G1 X133.757 Y185.488 E62.93682
G1 X131.194 Y185.56 E63.05622
G1 X129.026 Y185.676 E63.15731
G1 X128.107 Y185.699 E63.20012
G1 X107.207 Y185.7 E64.17331
G1 X106.357 Y185.689 E64.21289
G1 X105.525 Y185.658 E64.25166
G1 X103.857 Y185.563 E64.32945
G1 X101.291 Y185.49 E64.44899
G1 X98.757 Y185.488 E64.56698
G1 X96.194 Y185.56 E64.68637
G1 X94.026 Y185.676 E64.78747
G1 X93.107 Y185.699 E64.83027
G1 X64.207 Y185.7 E66.17598
G1 X63.361 Y185.689 E66.21537
G1 X62.459 Y185.636 E66.25745
G1 X61.566 Y185.504 E66.29948
G1 X60.687 Y185.293 E66.34157
G1 X59.831 Y185.005 E66.38363
G1 X59.004 Y184.643 E66.42566
G1 X58.212 Y184.209 E66.46772
G1 X57.462 Y183.706 E66.50977
G1 X56.594 Y182.991 E66.56213
G1 X56.145 Y182.566 E66.59092
G1 X52.773 Y179.198 E66.81284
G1 X52.184 Y178.592 E66.85219
G1 X51.585 Y177.916 E66.89425
G1 X51.047 Y177.19 E66.93632
G1 X50.376 Y176.036 E66.99848
G1 X49.378 Y174.03 E67.10281
G1 X49.012 Y173.205 E67.14484
G1 X48.72 Y172.35 E67.18691
G1 X48.505 Y171.473 E67.22895
G1 X48.369 Y170.58 E67.27102
G1 X48.315 Y169.798 E67.30752
G1 X48.3 Y169.159 E67.33728
G1 X48.301 Y168.025 E67.39008
G1 X48.312 Y167.337 E67.42212
G1 X48.394 Y166.203 E67.47506
G1 X48.6 Y164.597 E67.55046
G1 X48.884 Y162.027 E67.67086
G1 X49.093 Y159.474 E67.79013
G1 X49.227 Y156.984 E67.90625
G1 X49.3 Y153.303 E68.07768
G1 X49.301 Y142.063 E68.60106
G1 X49.319 Y141.071 E68.64726
G1 X49.342 Y140.525 E68.67271
G1 X49.437 Y138.857 E68.7505
G1 X49.51 Y136.291 E68.87004
G1 X49.512 Y133.757 E68.98803
G1 X49.44 Y131.194 E69.10742
G1 X49.324 Y129.026 E69.20852
G1 X49.301 Y128.109 E69.25123
G1 X49.3 Y107.207 E70.22451
G1 X49.311 Y106.356 E70.26414
G1 X49.342 Y105.525 E70.30287
G1 X49.437 Y103.857 E70.38066
G1 X49.51 Y101.291 E70.50019
G1 X49.512 Y98.757 E70.61819
G1 X49.44 Y96.195 E70.73753
G1 X49.324 Y94.027 E70.83863
G1 X49.301 Y93.109 E70.88139
G1 X49.3 Y81.6 E71.41729
G1 X49.263 Y78.994 E71.53865
G1 X49.154 Y76.428 E71.65824
G1 X48.976 Y73.921 E71.77527
G1 X48.727 Y71.4 E71.89323
G1 X48.391 Y68.771 E72.01665
G1 X48.313 Y67.768 E72.06349
G1 X48.3 Y67.099 E72.09465
G1 X48.31 Y65.452 E72.17134
G1 X48.356 Y64.55 E72.2134
G1 X48.481 Y63.656 E72.25543
G1 X48.684 Y62.776 E72.29748
G1 X48.965 Y61.917 E72.33957
G1 X49.374 Y60.978 E72.38726
G1 X50.369 Y58.974 E72.49144
G1 X50.806 Y58.184 E72.53348
G1 X51.311 Y57.435 E72.57554
G1 X52.059 Y56.539 E72.62989
G1 X52.434 Y56.146 E72.65519
G1 X55.92 Y52.656 E72.88488
G1 F1500 E66.38488
G0 F6000 X58.7 Y65.711
G1 F1500 E72.88488
G1 F1200 X166.921 Y65.71 E77.9241
G1 X166.842 Y65.921 E77.93459
G1 X166.831 Y65.96 E77.93648
G1 X166.769 Y66.356 E77.95514
G1 X166.767 Y66.396 E77.95701
G1 X166.785 Y66.799 E77.97579
G1 X166.791 Y66.839 E77.97767
G1 X166.904 Y67.289 E77.99928
G1 X58.7 Y67.29 E83.03771
G1 X58.7 Y65.711 E83.11124
G0 F6000 X59.1 Y66.111
G1 F1200 X166.403 Y66.11 E88.10771
