;FLAVOR:Marlin
;TIME:2335
;Filament used: 1.24339m
;Layer height: 0.16
;MINX:85.75
;MINY:94
;MINZ:0.2
;MAXX:143.25
;MAXY:143.1
;MAXZ:10.76
;Generated with Cura_SteamEngine 5.4.0
M140 S60
M105
M190 S60
M104 S225
M105
M109 S225
M82 ;absolute extrusion mode
M201 X500.00 Y500.00 Z100.00 E5000.00 ;Setup machine max acceleration
M203 X500.00 Y500.00 Z10.00 E50.00 ;Setup machine max feedrate
M204 P500.00 R1000.00 T500.00 ;Setup Print/Retract/Travel acceleration
M205 X8.00 Y8.00 Z0.40 E5.00 ;Setup Jerk
M220 S100 ;Reset Feedrate
M221 S100 ;Reset Flowrate

G28 ;Home

G92 E0 ;Reset Extruder
G1 Z2.0 F3000 ;Move Z Axis up
G1 X10.1 Y20 Z0.28 F5000.0 ;Move to start position
G1 X10.1 Y200.0 Z0.28 F1500.0 E15 ;Draw the first line
G1 X10.4 Y200.0 Z0.28 F5000.0 ;Move to side a little
G1 X10.4 Y20 Z0.28 F1500.0 E30 ;Draw the second line
G92 E0 ;Reset Extruder
G1 Z2.0 F3000 ;Move Z Axis up

G92 E0
G92 E0
G1 F1500 E-6.5
;LAYER_COUNT:56
;LAYER:0
M107
G0 F6000 X88.83 Y95.564 Z0.2
;TYPE:SKIRT
G1 F1500 E0
G1 F1200 X90.853 Y94.357 E0.07835
G1 X92.571 Y94.075 E0.13626
G1 X121.703 Y94 E1.10519
G1 X123.599 Y94.466 E1.17013
G1 X125.627 Y95.519 E1.24613
G1 X127.104 Y97.098 E1.31805
G1 X128.047 Y98.692 E1.37965
G1 X128.351 Y99.44 E1.4065
G1 X128.541 Y100.7 E1.44888
G1 X136.303 Y100.7 E1.70705
G1 X138.199 Y101.166 E1.77199
G1 X140.227 Y102.219 E1.84799
G1 X141.686 Y103.78 E1.91905
G1 X142.893 Y105.803 E1.99741
G1 X143.175 Y107.521 E2.05531
G1 X143.25 Y129.453 E2.78478
G1 X142.784 Y131.349 E2.84971
G1 X141.731 Y133.377 E2.92572
G1 X140.17 Y134.836 E2.99678
G1 X138.147 Y136.043 E3.07513
G1 X136.367 Y136.33 E3.1351
G1 X128.594 Y136.382 E3.39364
G1 X128.184 Y138.049 E3.45074
G1 X127.131 Y140.077 E3.52674
G1 X125.57 Y141.536 E3.5978
G1 X123.547 Y142.743 E3.67616
G1 X121.829 Y143.025 E3.73406
G1 X92.697 Y143.1 E4.703
G1 X90.801 Y142.634 E4.76794
G1 X88.773 Y141.581 E4.84394
G1 X87.314 Y140.02 E4.915
G1 X86.107 Y137.997 E4.99336
G1 X85.825 Y136.279 E5.05126
G1 X85.75 Y100.947 E6.22641
G1 X86.216 Y99.051 E6.29135
G1 X87.269 Y97.023 E6.36735
G1 X88.83 Y95.564 E6.43842
G0 F6000 X89.069 Y95.888
G1 F1200 X90.993 Y94.74 E6.51294
G1 X92.636 Y94.47 E6.56832
G1 X121.657 Y94.4 E7.53356
G1 X123.456 Y94.842 E7.59517
G1 X125.382 Y95.842 E7.66735
G1 X126.78 Y97.337 E7.73543
G1 X127.676 Y98.843 E7.79372
G1 X127.962 Y99.547 E7.81899
G1 X128.196 Y101.1 E7.87123
G1 X136.257 Y101.1 E8.13933
G1 X138.056 Y101.542 E8.20095
G1 X139.982 Y102.542 E8.27313
G1 X141.362 Y104.019 E8.34036
G1 X142.51 Y105.943 E8.41488
G1 X142.78 Y107.586 E8.47026
G1 X142.85 Y129.407 E9.19603
G1 X142.408 Y131.206 E9.25764
G1 X141.408 Y133.132 E9.32982
G1 X139.931 Y134.512 E9.39705
G1 X138.007 Y135.66 E9.47157
G1 X136.364 Y135.93 E9.52695
G1 X128.25 Y135.984 E9.79683
G1 X128.238 Y136.156 E9.80257
G1 X127.808 Y137.906 E9.8625
G1 X126.808 Y139.832 E9.93468
G1 X125.331 Y141.212 E10.00191
G1 X123.407 Y142.36 E10.07643
G1 X121.764 Y142.63 E10.13181
G1 X92.743 Y142.7 E11.09705
G1 X90.944 Y142.258 E11.15867
G1 X89.018 Y141.258 E11.23085
G1 X87.638 Y139.781 E11.29808
G1 X86.49 Y137.857 E11.3726
G1 X86.22 Y136.214 E11.42798
G1 X86.15 Y100.993 E12.59943
G1 X86.592 Y99.194 E12.66105
G1 X87.592 Y97.268 E12.73323
G1 X89.069 Y95.888 E12.80046
G0 F6000 X89.311 Y96.209
G1 F1200 X91.131 Y95.123 E12.87095
G1 X92.701 Y94.865 E12.92387
G1 X121.61 Y94.8 E13.88539
G1 X123.314 Y95.219 E13.94375
G1 X125.137 Y96.165 E14.01206
G1 X126.456 Y97.576 E14.0763
G1 X127.332 Y99.048 E14.13328
G1 X127.572 Y99.649 E14.1548
G1 X127.809 Y101.22 E14.20764
G1 X127.817 Y101.5 E14.21696
G1 X136.21 Y101.5 E14.49611
G1 X137.914 Y101.919 E14.55448
G1 X139.737 Y102.865 E14.62279
G1 X141.041 Y104.261 E14.68632
G1 X142.127 Y106.081 E14.75681
G1 X142.385 Y107.651 E14.80973
G1 X142.45 Y129.36 E15.53178
G1 X142.031 Y131.064 E15.59014
G1 X141.085 Y132.887 E15.65846
G1 X139.689 Y134.191 E15.72199
G1 X137.869 Y135.277 E15.79248
G1 X136.299 Y135.535 E15.8454
G1 X127.85 Y135.586 E16.12642
G1 X127.85 Y136.06 E16.14219
G1 X127.431 Y137.764 E16.20055
G1 X126.485 Y139.587 E16.26886
G1 X125.089 Y140.891 E16.3324
G1 X123.269 Y141.977 E16.40289
G1 X121.699 Y142.235 E16.45581
G1 X92.79 Y142.3 E17.41733
G1 X91.086 Y141.881 E17.47569
G1 X89.263 Y140.935 E17.544
G1 X87.959 Y139.539 E17.60754
G1 X86.873 Y137.719 E17.67803
G1 X86.615 Y136.149 E17.73095
G1 X86.55 Y101.04 E18.89868
G1 X86.969 Y99.336 E18.95704
G1 X87.915 Y97.513 E19.02536
G1 X89.311 Y96.209 E19.08889
G0 F6000 X89.553 Y96.53
G1 F1200 X91.269 Y95.506 E19.15536
G1 X92.766 Y95.26 E19.20581
G1 X121.564 Y95.2 E20.16364
G1 X123.171 Y95.595 E20.21868
G1 X124.892 Y96.488 E20.28317
G1 X126.132 Y97.815 E20.34358
G1 X126.988 Y99.253 E20.39924
G1 X127.183 Y99.753 E20.41709
G1 X127.413 Y101.28 E20.46845
G1 X127.424 Y101.9 E20.48907
G1 X136.164 Y101.9 E20.77977
G1 X137.771 Y102.295 E20.83481
G1 X139.492 Y103.188 E20.89929
G1 X140.72 Y104.503 E20.95914
G1 X141.744 Y106.219 E21.0256
G1 X141.99 Y107.716 E21.07606
G1 X142.05 Y129.314 E21.79441
G1 X141.655 Y130.921 E21.84945
G1 X140.762 Y132.642 E21.91394
G1 X139.447 Y133.87 E21.97378
G1 X137.731 Y134.894 E22.04025
G1 X136.234 Y135.14 E22.09071
G1 X127.45 Y135.188 E22.38287
G1 X127.45 Y136.014 E22.41034
G1 X127.055 Y137.621 E22.46538
G1 X126.162 Y139.342 E22.52987
G1 X124.847 Y140.57 E22.58971
G1 X123.131 Y141.594 E22.65617
G1 X121.634 Y141.84 E22.70663
G1 X92.836 Y141.9 E23.66446
G1 X91.229 Y141.505 E23.7195
G1 X89.508 Y140.612 E23.78399
G1 X88.28 Y139.297 E23.84383
G1 X87.256 Y137.581 E23.91029
G1 X87.01 Y136.084 E23.96075
G1 X86.95 Y101.086 E25.12479
G1 X87.345 Y99.479 E25.17983
G1 X88.238 Y97.758 E25.24432
G1 X89.553 Y96.53 E25.30416
G0 F6000 X89.795 Y96.851
G1 F1200 X91.407 Y95.889 E25.3666
G1 X92.831 Y95.655 E25.4146
G1 X121.518 Y95.6 E26.36873
G1 X123.028 Y95.971 E26.42045
G1 X124.647 Y96.811 E26.48111
G1 X125.808 Y98.054 E26.53768
G1 X126.644 Y99.458 E26.59203
G1 X126.793 Y99.853 E26.60607
G1 X127.017 Y101.34 E26.65609
G1 X127.029 Y102.3 E26.68802
G1 X136.118 Y102.3 E26.99032
G1 X137.628 Y102.671 E27.04204
G1 X139.247 Y103.511 E27.1027
G1 X140.399 Y104.745 E27.15885
G1 X141.361 Y106.357 E27.22129
G1 X141.595 Y107.781 E27.26929
G1 X141.65 Y129.268 E27.98395
G1 X141.279 Y130.778 E28.03567
G1 X140.439 Y132.397 E28.09633
G1 X139.205 Y133.549 E28.15248
G1 X137.593 Y134.511 E28.21492
G1 X136.169 Y134.745 E28.26291
G1 X127.05 Y134.79 E28.56622
G1 X127.05 Y135.968 E28.6054
G1 X126.679 Y137.478 E28.65711
G1 X125.839 Y139.097 E28.71778
G1 X124.605 Y140.249 E28.77393
G1 X122.993 Y141.211 E28.83636
G1 X121.569 Y141.445 E28.88436
G1 X92.882 Y141.5 E29.8385
G1 X91.372 Y141.129 E29.89021
G1 X89.753 Y140.289 E29.95088
G1 X88.601 Y139.055 E30.00703
G1 X87.639 Y137.443 E30.06946
G1 X87.405 Y136.019 E30.11746
G1 X87.35 Y101.132 E31.27781
G1 X87.721 Y99.622 E31.32952
G1 X88.561 Y98.003 E31.39019
G1 X89.795 Y96.851 E31.44634
G0 F6000 X90.037 Y97.172
G1 F1200 X91.545 Y96.272 E31.50475
G1 X92.896 Y96.05 E31.55028
G1 X121.471 Y96 E32.50069
G1 X122.886 Y96.348 E32.54916
G1 X124.402 Y97.134 E32.60596
G1 X125.484 Y98.293 E32.65869
G1 X126.3 Y99.663 E32.71173
G1 X126.403 Y99.952 E32.72193
G1 X126.621 Y101.4 E32.77064
G1 X126.633 Y102.7 E32.81388
G1 X136.071 Y102.7 E33.12779
G1 X137.486 Y103.048 E33.17625
G1 X139.002 Y103.834 E33.23305
G1 X140.078 Y104.987 E33.2855
G1 X140.978 Y106.495 E33.34391
G1 X141.2 Y107.846 E33.38945
G1 X141.25 Y129.221 E34.10039
G1 X140.902 Y130.636 E34.14885
G1 X140.116 Y132.152 E34.20565
G1 X138.963 Y133.228 E34.2581
G1 X137.455 Y134.128 E34.31651
G1 X136.104 Y134.35 E34.36205
G1 X126.65 Y134.392 E34.67649
G1 X126.65 Y135.921 E34.72735
G1 X126.302 Y137.336 E34.77581
G1 X125.516 Y138.852 E34.83261
G1 X124.363 Y139.928 E34.88506
G1 X122.855 Y140.828 E34.94347
G1 X121.504 Y141.05 E34.98901
G1 X92.929 Y141.1 E35.93942
G1 X91.514 Y140.752 E35.98789
G1 X89.998 Y139.966 E36.04468
G1 X88.922 Y138.813 E36.09714
G1 X88.022 Y137.305 E36.15555
G1 X87.8 Y135.954 E36.20108
G1 X87.75 Y101.179 E37.3577
G1 X88.098 Y99.764 E37.40617
G1 X88.884 Y98.248 E37.46297
G1 X90.037 Y97.172 E37.51542
G0 F6000 X90.279 Y97.493
G1 F1200 X91.683 Y96.655 E37.5698
G1 X92.961 Y96.445 E37.61288
G1 X121.425 Y96.4 E38.5596
G1 X122.743 Y96.724 E38.60474
G1 X124.157 Y97.457 E38.65771
G1 X125.16 Y98.532 E38.70661
G1 X125.956 Y99.868 E38.75834
G1 X126.007 Y100.012 E38.76342
G1 X126.225 Y101.46 E38.81212
G1 X126.235 Y103.1 E38.86667
G1 X136.025 Y103.1 E39.19229
G1 X137.343 Y103.424 E39.23743
G1 X138.757 Y104.157 E39.2904
G1 X139.757 Y105.229 E39.33916
G1 X140.595 Y106.633 E39.39354
G1 X140.805 Y107.911 E39.43662
G1 X140.85 Y129.175 E40.14387
G1 X140.526 Y130.493 E40.18901
G1 X139.793 Y131.907 E40.24198
G1 X138.721 Y132.907 E40.29074
G1 X137.317 Y133.745 E40.34512
G1 X136.039 Y133.955 E40.3882
G1 X126.25 Y133.994 E40.71379
G1 X126.25 Y135.875 E40.77635
G1 X125.926 Y137.193 E40.82149
G1 X125.193 Y138.607 E40.87446
G1 X124.121 Y139.607 E40.92322
G1 X122.717 Y140.445 E40.97761
G1 X121.439 Y140.655 E41.02068
G1 X92.975 Y140.7 E41.9674
G1 X91.657 Y140.376 E42.01254
G1 X90.243 Y139.643 E42.06552
G1 X89.243 Y138.571 E42.11428
G1 X88.405 Y137.167 E42.16866
G1 X88.195 Y135.889 E42.21174
G1 X88.15 Y101.225 E43.36467
G1 X88.474 Y99.907 E43.40981
G1 X89.207 Y98.493 E43.46278
G1 X90.279 Y97.493 E43.51154
G0 F6000 X90.524 Y97.812
G1 F1200 X91.821 Y97.038 E43.56178
G1 X93.026 Y96.84 E43.60239
G1 X121.379 Y96.8 E44.54542
G1 X122.6 Y97.1 E44.58724
G1 X123.91 Y97.779 E44.63631
G1 X124.838 Y98.774 E44.68157
G1 X125.612 Y100.073 E44.73186
G1 X125.825 Y101.463 E44.77863
G1 X125.838 Y103.5 E44.84638
G1 X135.979 Y103.5 E45.18367
G1 X137.2 Y103.8 E45.22549
G1 X138.51 Y104.479 E45.27457
G1 X139.438 Y105.474 E45.31982
G1 X140.212 Y106.771 E45.37006
G1 X140.41 Y107.976 E45.41067
G1 X140.45 Y129.129 E46.11423
G1 X140.15 Y130.35 E46.15604
G1 X139.471 Y131.66 E46.20512
G1 X138.476 Y132.588 E46.25037
G1 X137.179 Y133.362 E46.30061
G1 X135.974 Y133.56 E46.34122
G1 X125.85 Y133.595 E46.67795
G1 X125.85 Y135.829 E46.75226
G1 X125.55 Y137.05 E46.79407
G1 X124.871 Y138.36 E46.84315
G1 X123.876 Y139.288 E46.8884
G1 X122.579 Y140.062 E46.93864
G1 X121.374 Y140.26 E46.97925
G1 X93.021 Y140.3 E47.92228
G1 X91.8 Y140 E47.9641
G1 X90.49 Y139.321 E48.01317
G1 X89.562 Y138.326 E48.05843
G1 X88.788 Y137.029 E48.10866
G1 X88.59 Y135.824 E48.14928
G1 X88.55 Y101.271 E49.29852
G1 X88.85 Y100.05 E49.34034
G1 X89.529 Y98.74 E49.38941
G1 X90.524 Y97.812 E49.43467
G0 F6000 X90.766 Y98.134
G1 F1200 X91.961 Y97.421 E49.48095
G1 X93.091 Y97.235 E49.51904
G1 X121.333 Y97.2 E50.45837
G1 X122.457 Y97.476 E50.49687
G1 X123.663 Y98.101 E50.54205
G1 X124.516 Y99.016 E50.58365
G1 X125.229 Y100.212 E50.62996
G1 X125.425 Y101.465 E50.67214
G1 X125.44 Y103.9 E50.75313
G1 X135.933 Y103.9 E51.10213
G1 X137.057 Y104.176 E51.14063
G1 X138.263 Y104.801 E51.18581
G1 X139.116 Y105.716 E51.22741
G1 X139.829 Y106.911 E51.2737
G1 X140.015 Y108.041 E51.31179
G1 X140.05 Y129.083 E52.01165
G1 X139.774 Y130.207 E52.05014
G1 X139.149 Y131.413 E52.09532
G1 X138.234 Y132.266 E52.13693
G1 X137.039 Y132.979 E52.18321
G1 X135.909 Y133.165 E52.2213
G1 X125.45 Y133.196 E52.56917
G1 X125.45 Y135.783 E52.65521
G1 X125.174 Y136.907 E52.69371
G1 X124.549 Y138.113 E52.73888
G1 X123.634 Y138.966 E52.78049
G1 X122.439 Y139.679 E52.82677
G1 X121.309 Y139.865 E52.86486
G1 X93.067 Y139.9 E53.8042
G1 X91.943 Y139.624 E53.84269
G1 X90.737 Y138.999 E53.88787
G1 X89.884 Y138.084 E53.92948
G1 X89.171 Y136.889 E53.97576
G1 X88.985 Y135.759 E54.01385
G1 X88.95 Y101.317 E55.15939
G1 X89.226 Y100.193 E55.19789
G1 X89.851 Y98.987 E55.24307
G1 X90.766 Y98.134 E55.28467
G0 F6000 X91.008 Y98.456
G1 F1200 X92.101 Y97.804 E55.327
G1 X93.156 Y97.63 E55.36257
G1 X121.286 Y97.6 E56.29818
G1 X122.315 Y97.853 E56.33342
G1 X123.416 Y98.423 E56.37466
G1 X124.194 Y99.258 E56.41261
G1 X124.846 Y100.352 E56.45497
G1 X125.025 Y101.468 E56.49257
G1 X125.043 Y104.3 E56.58676
G1 X135.886 Y104.3 E56.9474
G1 X136.915 Y104.553 E56.98264
G1 X138.016 Y105.123 E57.02388
G1 X138.794 Y105.958 E57.06184
G1 X139.446 Y107.051 E57.10417
G1 X139.62 Y108.106 E57.13973
G1 X139.65 Y129.036 E57.83587
G1 X139.397 Y130.065 E57.87111
G1 X138.827 Y131.166 E57.91235
G1 X137.992 Y131.944 E57.95031
G1 X136.899 Y132.596 E57.99264
G1 X135.844 Y132.77 E58.0282
G1 X125.05 Y132.797 E58.38721
G1 X125.05 Y135.736 E58.48496
G1 X124.797 Y136.765 E58.52021
G1 X124.227 Y137.866 E58.56144
G1 X123.392 Y138.644 E58.5994
G1 X122.299 Y139.296 E58.64173
G1 X121.244 Y139.47 E58.6773
G1 X93.114 Y139.5 E59.6129
G1 X92.085 Y139.247 E59.64815
G1 X90.984 Y138.677 E59.68938
G1 X90.206 Y137.842 E59.72734
G1 X89.554 Y136.749 E59.76967
G1 X89.38 Y135.694 E59.80524
G1 X89.35 Y101.364 E60.94706
G1 X89.603 Y100.335 E60.9823
G1 X90.173 Y99.234 E61.02354
G1 X91.008 Y98.456 E61.0615
G0 F6000 X91.25 Y98.778
G1 F1200 X92.241 Y98.187 E61.09987
G1 X93.221 Y98.025 E61.13291
G1 X121.24 Y98 E62.06483
G1 X122.172 Y98.229 E62.09675
G1 X123.169 Y98.745 E62.13408
G1 X123.872 Y99.5 E62.1684
G1 X124.463 Y100.491 E62.20677
G1 X124.625 Y101.471 E62.23981
G1 X124.646 Y104.7 E62.34721
G1 X135.84 Y104.7 E62.71952
G1 X136.772 Y104.929 E62.75144
G1 X137.769 Y105.445 E62.78878
G1 X138.472 Y106.2 E62.82309
G1 X139.063 Y107.191 E62.86147
G1 X139.225 Y108.171 E62.89451
G1 X139.25 Y128.99 E63.58695
G1 X139.021 Y129.922 E63.61887
G1 X138.505 Y130.919 E63.65621
G1 X137.75 Y131.622 E63.69052
G1 X136.759 Y132.213 E63.7289
G1 X135.779 Y132.375 E63.76194
G1 X124.65 Y132.398 E64.13209
G1 X124.65 Y135.69 E64.24158
G1 X124.421 Y136.622 E64.2735
G1 X123.905 Y137.619 E64.31084
G1 X123.15 Y138.322 E64.34515
G1 X122.159 Y138.913 E64.38353
G1 X121.179 Y139.075 E64.41657
G1 X93.16 Y139.1 E65.34848
G1 X92.228 Y138.871 E65.3804
G1 X91.231 Y138.355 E65.41774
G1 X90.528 Y137.6 E65.45205
G1 X89.937 Y136.609 E65.49043
G1 X89.775 Y135.629 E65.52347
G1 X89.75 Y101.41 E66.6616
G1 X89.979 Y100.478 E66.69352
G1 X90.495 Y99.481 E66.73086
G1 X91.25 Y98.778 E66.76517
G0 F6000 X91.489 Y99.102
G1 F1200 X92.381 Y98.57 E66.79971
G1 X93.286 Y98.42 E66.83022
G1 X121.194 Y98.4 E67.75845
G1 X122.029 Y98.605 E67.78704
G1 X122.924 Y99.068 E67.82056
G1 X123.548 Y99.739 E67.85104
G1 X124.08 Y100.631 E67.88558
G1 X124.23 Y101.536 E67.91609
G1 X124.248 Y105.1 E68.03463
G1 X135.794 Y105.1 E68.41865
G1 X136.629 Y105.305 E68.44725
G1 X137.524 Y105.768 E68.48076
G1 X138.148 Y106.439 E68.51124
G1 X138.68 Y107.331 E68.54578
G1 X138.83 Y108.236 E68.5763
G1 X138.85 Y128.944 E69.26505
G1 X138.645 Y129.779 E69.29364
G1 X138.182 Y130.674 E69.32716
G1 X137.511 Y131.298 E69.35764
G1 X136.619 Y131.83 E69.39218
G1 X135.714 Y131.98 E69.42269
G1 X124.25 Y131.999 E69.80399
G1 X124.25 Y135.644 E69.92522
G1 X124.045 Y136.479 E69.95382
G1 X123.582 Y137.374 E69.98733
G1 X122.911 Y137.998 E70.01781
G1 X122.019 Y138.53 E70.05235
G1 X121.114 Y138.68 E70.08286
G1 X93.206 Y138.7 E71.01109
G1 X92.371 Y138.495 E71.03968
G1 X91.476 Y138.032 E71.0732
G1 X90.852 Y137.361 E71.10367
G1 X90.32 Y136.469 E71.13822
G1 X90.17 Y135.564 E71.16873
G1 X90.15 Y101.456 E72.30317
G1 X90.355 Y100.621 E72.33176
G1 X90.818 Y99.726 E72.36528
G1 X91.489 Y99.102 E72.39576
G0 F6000 X91.728 Y99.426
G1 F1200 X92.521 Y98.953 E72.42647
G1 X93.352 Y98.815 E72.45448
G1 X121.148 Y98.8 E73.37898
G1 X121.886 Y98.981 E73.40426
G1 X122.679 Y99.391 E73.43395
G1 X123.224 Y99.978 E73.46059
G1 X123.697 Y100.771 E73.4913
G1 X123.835 Y101.602 E73.51932
G1 X123.849 Y105.5 E73.64897
G1 X135.748 Y105.5 E74.04473
G1 X136.486 Y105.681 E74.07
G1 X137.279 Y106.091 E74.09969
G1 X137.824 Y106.678 E74.12634
G1 X138.297 Y107.471 E74.15705
G1 X138.435 Y108.302 E74.18506
