;FLAVOR:Marlin
;TIME:3950
;Filament used: 3.43563m
;Layer height: 0.28
;MINX:18.71
;MINY:68.6
;MINZ:0.28
;MAXX:229.721
;MAXY:166.4
;MAXZ:15.9
;Generated with Cura_SteamEngine 5.4.0
M140 S95
M105
M190 S95
M104 S255
M105
M109 S255
M82 ;absolute extrusion mode
M201 X500.00 Y500.00 Z100.00 E5000.00 ;Setup machine max acceleration
M203 X500.00 Y500.00 Z10.00 E50.00 ;Setup machine max feedrate
M204 P500.00 R1000.00 T500.00 ;Setup Print/Retract/Travel acceleration
M205 X8.00 Y8.00 Z0.40 E5.00 ;Setup Jerk
M220 S100 ;Reset Feedrate
M221 S100 ;Reset Flowrate

G28 ;Home

G92 E0 ;Reset Extruder
G1 Z2.0 F3000 ;Move Z Axis up
G1 X10.1 Y20 Z0.28 F5000.0 ;Move to start position
G1 X10.1 Y200.0 Z0.28 F1500.0 E15 ;Draw the first line
G1 X10.4 Y200.0 Z0.28 F5000.0 ;Move to side a little
G1 X10.4 Y20 Z0.28 F1500.0 E30 ;Draw the second line
G92 E0 ;Reset Extruder
G1 Z2.0 F3000 ;Move Z Axis up

G92 E0
G92 E0
G1 F1500 E-6.5
;LAYER_COUNT:17
;LAYER:0
M107
G0 F6000 X26.498 Y75.901 Z0.28
;TYPE:SKIRT
G1 F1500 E0
G1 F1200 X27.422 Y75.594 E0.04534
G1 X28.371 Y75.369 E0.09075
G1 X29.264 Y75.237 E0.13279
G1 X30.215 Y75.178 E0.17715
G1 X31.434 Y75.157 E0.23392
G1 X32.83 Y75.159 E0.29893
G1 X33.535 Y75.171 E0.33176
G1 X34.508 Y75.231 E0.37715
G1 X35.469 Y75.378 E0.42242
G1 X36.416 Y75.609 E0.46781
G1 X37.272 Y75.897 E0.50987
G1 X38.343 Y76.374 E0.56446
G1 X38.685 Y76.549 E0.58235
G1 X39.529 Y77.033 E0.62765
G1 X40.271 Y77.547 E0.66968
G1 X41.478 Y78.593 E0.74405
G1 X42.19 Y79.363 E0.79289
G1 X42.813 Y80.168 E0.84028
G1 X43.557 Y81.385 E0.9067
G1 X43.741 Y81.737 E0.9252
G1 X44.153 Y82.62 E0.97057
G1 X44.484 Y83.535 E1.01588
G1 X44.726 Y84.443 E1.05963
G1 X44.899 Y85.443 E1.10689
G1 X44.983 Y86.556 E1.15886
G1 X44.997 Y87.275 E1.19235
G1 X44.992 Y139.31 E3.61532
G1 X44.98 Y140.043 E3.64945
G1 X44.917 Y141.032 E3.6956
G1 X44.688 Y142.379 E3.75922
G1 X44.494 Y143.199 E3.79846
G1 X42.654 Y150.406 E4.14481
G1 X42.467 Y151.095 E4.17805
G1 X42.169 Y152.022 E4.22339
G1 X41.79 Y152.918 E4.26869
G1 X41.351 Y153.748 E4.31242
G1 X40.8 Y154.595 E4.35947
G1 X40.199 Y155.362 E4.40484
G1 X39.532 Y156.071 E4.45017
G1 X38.805 Y156.719 E4.49551
G1 X38.052 Y157.28 E4.53924
G1 X37.194 Y157.809 E4.58617
G1 X36.354 Y158.23 E4.62993
G1 X35.415 Y158.599 E4.6769
G1 X34.481 Y158.873 E4.72223
G1 X33.525 Y159.064 E4.76762
G1 X32.558 Y159.168 E4.81291
G1 X31.583 Y159.187 E4.85832
G1 X30.612 Y159.119 E4.90364
G1 X29.651 Y158.966 E4.94895
G1 X28.706 Y158.729 E4.99432
G1 X27.786 Y158.409 E5.03968
G1 X26.899 Y158.008 E5.085
G1 X26.049 Y157.531 E5.13039
G1 X25.246 Y156.981 E5.17571
G1 X24.494 Y156.361 E5.22109
G1 X23.801 Y155.679 E5.26637
G1 X23.192 Y154.965 E5.31007
G1 X22.608 Y154.141 E5.35709
G1 X22.118 Y153.3 E5.40242
G1 X21.698 Y152.404 E5.44849
G1 X21.256 Y151.124 E5.51155
G1 X20.941 Y149.98 E5.5668
G1 X19.209 Y143.19 E5.8931
G1 X19.019 Y142.403 E5.9308
G1 X18.836 Y141.447 E5.97612
G1 X18.738 Y140.497 E6.02059
G1 X18.711 Y139.425 E6.07052
G1 X18.71 Y87.559 E8.48562
G1 X18.726 Y86.664 E8.5273
G1 X18.789 Y85.691 E8.5727
G1 X18.937 Y84.729 E8.61803
G1 X19.151 Y83.852 E8.66006
G1 X19.34 Y83.258 E8.68909
G1 X19.485 Y82.848 E8.70934
G1 X19.85 Y81.945 E8.75469
G1 X20.294 Y81.079 E8.80001
G1 X20.812 Y80.255 E8.84533
G1 X21.401 Y79.479 E8.89069
G1 X22.056 Y78.76 E8.93598
G1 X22.725 Y78.14 E8.97845
G1 X23.014 Y77.895 E8.99609
G1 X23.785 Y77.299 E9.04147
G1 X24.605 Y76.775 E9.08678
G1 X25.462 Y76.327 E9.13181
G1 X26.159 Y76.031 E9.16707
G1 X26.498 Y75.901 E9.18398
G0 F6000 X26.625 Y76.28
G1 F1200 X27.515 Y75.983 E9.22767
G1 X28.429 Y75.765 E9.27142
G1 X29.322 Y75.633 E9.31345
G1 X30.222 Y75.578 E9.35544
G1 X31.433 Y75.557 E9.41184
G1 X32.824 Y75.559 E9.47661
G1 X33.511 Y75.57 E9.5086
G1 X34.448 Y75.627 E9.55231
G1 X35.375 Y75.767 E9.59597
G1 X36.288 Y75.988 E9.63971
G1 X37.144 Y76.276 E9.68176
G1 X38.161 Y76.73 E9.73362
G1 X38.486 Y76.896 E9.75062
G1 X39.301 Y77.362 E9.79433
G1 X40.043 Y77.876 E9.83636
G1 X41.184 Y78.865 E9.90667
G1 X41.896 Y79.635 E9.95551
G1 X42.496 Y80.412 E10.00122
G1 X43.203 Y81.571 E10.06444
G1 X43.379 Y81.907 E10.0821
G1 X43.777 Y82.757 E10.1258
G1 X44.097 Y83.638 E10.16945
G1 X44.339 Y84.546 E10.2132
G1 X44.5 Y85.473 E10.25701
G1 X44.583 Y86.564 E10.30796
G1 X44.597 Y87.275 E10.34108
G1 X44.592 Y139.304 E12.76376
G1 X44.581 Y140.019 E12.79706
G1 X44.523 Y140.965 E12.84119
G1 X44.299 Y142.287 E12.90363
G1 X44.106 Y143.1 E12.94254
G1 X42.268 Y150.301 E13.2886
G1 X42.086 Y150.973 E13.32101
G1 X41.8 Y151.867 E13.36472
G1 X41.436 Y152.731 E13.40838
G1 X40.997 Y153.561 E13.4521
G1 X40.485 Y154.349 E13.49586
G1 X39.907 Y155.088 E13.53954
G1 X39.265 Y155.773 E13.58326
G1 X38.566 Y156.398 E13.62692
G1 X37.813 Y156.959 E13.67064
G1 X37.015 Y157.451 E13.7143
G1 X36.175 Y157.872 E13.75805
G1 X35.302 Y158.215 E13.80172
G1 X34.402 Y158.481 E13.84542
G1 X33.481 Y158.666 E13.88917
G1 X32.549 Y158.768 E13.93282
G1 X31.61 Y158.788 E13.97656
G1 X30.674 Y158.724 E14.02024
G1 X29.748 Y158.578 E14.06389
G1 X28.837 Y158.351 E14.10761
G1 X27.95 Y158.044 E14.15132
G1 X27.094 Y157.659 E14.19502
G1 X26.275 Y157.201 E14.23872
G1 X25.5 Y156.672 E14.28241
G1 X24.774 Y156.076 E14.32615
G1 X24.105 Y155.419 E14.36981
G1 X23.496 Y154.705 E14.41351
G1 X22.953 Y153.939 E14.45723
G1 X22.48 Y153.129 E14.5009
G1 X22.076 Y152.273 E14.54498
G1 X21.642 Y151.018 E14.60681
G1 X21.329 Y149.881 E14.66173
G1 X19.598 Y143.096 E14.98778
G1 X19.412 Y142.327 E15.02462
G1 X19.234 Y141.406 E15.0683
G1 X19.138 Y140.482 E15.11156
G1 X19.12 Y140.014 E15.13337
G1 X19.111 Y139.425 E15.1608
G1 X19.11 Y87.566 E17.57557
G1 X19.125 Y86.689 E17.61641
G1 X19.184 Y85.752 E17.66013
G1 X19.326 Y84.824 E17.70384
G1 X19.54 Y83.947 E17.74588
G1 X19.717 Y83.391 E17.77305
G1 X19.856 Y82.997 E17.7925
G1 X20.206 Y82.127 E17.83617
G1 X20.633 Y81.291 E17.87988
G1 X21.131 Y80.496 E17.92356
G1 X21.697 Y79.748 E17.96724
G1 X22.328 Y79.053 E18.01095
G1 X22.984 Y78.445 E18.0526
G1 X23.259 Y78.211 E18.06941
G1 X24.001 Y77.636 E18.11312
G1 X24.791 Y77.129 E18.15683
G1 X25.619 Y76.695 E18.20036
G1 X26.302 Y76.404 E18.23493
G1 X26.625 Y76.28 E18.25104
G0 F6000 X26.752 Y76.659
G1 F1200 X27.608 Y76.372 E18.29308
G1 X28.487 Y76.161 E18.33518
G1 X29.38 Y76.029 E18.37721
G1 X30.229 Y75.978 E18.41681
G1 X31.432 Y75.957 E18.47284
G1 X32.818 Y75.959 E18.53738
G1 X33.487 Y75.969 E18.56853
G1 X34.389 Y76.023 E18.61061
G1 X35.282 Y76.156 E18.65265
G1 X36.16 Y76.367 E18.6947
G1 X37.016 Y76.655 E18.73675
G1 X37.979 Y77.086 E18.78588
G1 X38.288 Y77.244 E18.80204
G1 X39.073 Y77.691 E18.8441
G1 X39.815 Y78.205 E18.88613
G1 X40.89 Y79.137 E18.95238
G1 X41.602 Y79.907 E19.00122
G1 X42.155 Y80.621 E19.04327
G1 X42.849 Y81.757 E19.10525
G1 X43.017 Y82.077 E19.12208
G1 X43.401 Y82.894 E19.16412
G1 X43.711 Y83.742 E19.20616
G1 X43.945 Y84.615 E19.24825
G1 X44.101 Y85.504 E19.29028
G1 X44.183 Y86.572 E19.34015
G1 X44.197 Y87.275 E19.37289
G1 X44.192 Y139.298 E21.7953
G1 X44.182 Y139.996 E21.82781
G1 X44.129 Y140.898 E21.86988
G1 X43.91 Y142.194 E21.93108
G1 X43.718 Y143.001 E21.96971
G1 X41.882 Y150.197 E22.31552
G1 X41.705 Y150.852 E22.34711
G1 X41.431 Y151.712 E22.38914
G1 X41.082 Y152.545 E22.4312
G1 X40.661 Y153.344 E22.47325
G1 X40.17 Y154.103 E22.51534
G1 X39.615 Y154.815 E22.55738
G1 X38.998 Y155.475 E22.59945
G1 X38.326 Y156.078 E22.64149
G1 X37.603 Y156.619 E22.68354
G1 X36.835 Y157.094 E22.72559
G1 X36.028 Y157.5 E22.76765
G1 X35.188 Y157.832 E22.80971
G1 X34.323 Y158.089 E22.85173
G1 X33.437 Y158.268 E22.89382
G1 X32.54 Y158.368 E22.93584
G1 X31.637 Y158.389 E22.9779
G1 X30.736 Y158.329 E23.01995
G1 X29.844 Y158.19 E23.06199
G1 X28.967 Y157.973 E23.10406
G1 X28.113 Y157.679 E23.14611
G1 X27.289 Y157.31 E23.18815
G1 X26.5 Y156.87 E23.23022
G1 X25.753 Y156.362 E23.27228
G1 X25.054 Y155.79 E23.31434
G1 X24.409 Y155.159 E23.35636
G1 X23.822 Y154.473 E23.3984
G1 X23.298 Y153.737 E23.44047
G1 X22.841 Y152.958 E23.48252
G1 X22.454 Y152.142 E23.52457
G1 X22.028 Y150.912 E23.58519
G1 X21.717 Y149.782 E23.63976
G1 X19.987 Y143.002 E23.96558
G1 X19.805 Y142.25 E24.00161
G1 X19.632 Y141.364 E24.04364
G1 X19.538 Y140.466 E24.08569
G1 X19.52 Y140.008 E24.10703
G1 X19.511 Y139.425 E24.13418
G1 X19.51 Y87.573 E26.54863
G1 X19.524 Y86.714 E26.58863
G1 X19.58 Y85.812 E26.63071
G1 X19.715 Y84.919 E26.67277
G1 X19.929 Y84.042 E26.7148
G1 X20.095 Y83.523 E26.74017
G1 X20.227 Y83.146 E26.75877
G1 X20.563 Y82.308 E26.80081
G1 X20.972 Y81.503 E26.84286
G1 X21.45 Y80.737 E26.8849
G1 X21.994 Y80.016 E26.92696
G1 X22.6 Y79.346 E26.96902
G1 X23.243 Y78.75 E27.00985
G1 X23.505 Y78.527 E27.02587
G1 X24.218 Y77.972 E27.06794
G1 X24.977 Y77.483 E27.10998
G1 X25.776 Y77.063 E27.15202
G1 X26.446 Y76.777 E27.18594
G1 X26.752 Y76.659 E27.20121
G1 F1500 E20.70121
;MESH:Dice_v2 - Pen^Dice_v2-1.STL
G0 F6000 X29.108 Y86.606
G0 X30.129 Y86.967
G0 X30.871 Y139.708
G0 X31.852 Y144.2
;TYPE:WALL-INNER
G1 F1500 E27.20121
G1 F1200 X32.992 Y139.728 E27.4161
G1 X32.996 Y87.159 E29.86394
G1 X30.711 Y87.158 E29.97034
G1 X30.71 Y139.729 E32.41826
G1 X31.852 Y144.2 E32.63313
G0 F6000 X31.852 Y145.817
G1 F1200 X33.392 Y139.778 E32.92333
G1 X33.396 Y86.964 E35.38258
G1 X33.345 Y86.861 E35.38793
G1 X33.192 Y86.759 E35.39649
G1 X30.549 Y86.758 E35.51956
G1 X30.36 Y86.862 E35.5296
G1 X30.311 Y87.002 E35.53651
G1 X30.31 Y139.779 E37.99403
G1 X31.852 Y145.817 E38.28421
G1 F1500 E31.78421
G0 F6000 X31.853 Y146.609
G0 X31.852 Y147.435
;TYPE:WALL-OUTER
G1 F1500 E38.28421
G1 F1200 X33.792 Y139.828 E38.64976
G1 X33.796 Y86.868 E41.1158
G1 X33.672 Y86.622 E41.12863
G1 X33.532 Y86.483 E41.13781
G1 X33.289 Y86.359 E41.15051
G1 X30.479 Y86.358 E41.28136
G1 X30.232 Y86.447 E41.29359
G1 X30.019 Y86.626 E41.30654
G1 X29.911 Y86.934 E41.32174
G1 X29.91 Y139.829 E43.78475
G1 X31.852 Y147.435 E44.15028
G1 F1500 E37.65028
G0 F6000 X31.853 Y146.609
G0 X32.103 Y142.803
G0 X31.851 Y142.739
;TYPE:SKIN
G1 F1500 E44.15028
G1 F1200 X31.071 Y139.682 E44.29719
G1 X31.071 Y87.519 E46.72612
G1 X32.635 Y87.519 E46.79894
G1 X32.631 Y139.682 E49.22787
G1 X31.851 Y142.739 E49.37478
G0 F6000 X32.103 Y142.803
G0 X32.365 Y141.776
G0 X31.919 Y141.662
G1 F1200 X31.735 Y141.478 E49.38689
G0 F6000 X32.034 Y141.211
G1 F1200 X31.541 Y140.719 E49.41933
G0 F6000 X32.149 Y140.76
G1 F1200 X31.348 Y139.959 E49.47207
G0 F6000 X31.271 Y139.317
G1 F1200 X32.264 Y140.31 E49.53746
G0 F6000 X32.379 Y139.859
G1 F1200 X31.271 Y138.751 E49.61043
G0 F6000 X31.271 Y138.185
G1 F1200 X32.431 Y139.345 E49.68682
G0 F6000 X32.431 Y138.78
G1 F1200 X31.271 Y137.619 E49.76324
G0 F6000 X31.271 Y137.054
G1 F1200 X32.431 Y138.214 E49.83962
G0 F6000 X32.431 Y137.648
G1 F1200 X31.271 Y136.488 E49.91601
G0 F6000 X31.271 Y135.922
G1 F1200 X32.431 Y137.083 E49.99243
G0 F6000 X32.431 Y136.517
G1 F1200 X31.271 Y135.357 E50.06882
G0 F6000 X31.271 Y134.791
G1 F1200 X32.431 Y135.951 E50.14521
G0 F6000 X32.431 Y135.386
G1 F1200 X31.271 Y134.225 E50.22163
G0 F6000 X31.271 Y133.66
G1 F1200 X32.431 Y134.82 E50.29802
G0 F6000 X32.431 Y134.254
G1 F1200 X31.271 Y133.094 E50.37441
G0 F6000 X31.271 Y132.528
G1 F1200 X32.431 Y133.689 E50.45083
G0 F6000 X32.431 Y133.123
G1 F1200 X31.271 Y131.963 E50.52722
G0 F6000 X31.271 Y131.397
G1 F1200 X32.431 Y132.557 E50.6036
G0 F6000 X32.431 Y131.992
G1 F1200 X31.271 Y130.831 E50.68002
G0 F6000 X31.271 Y130.266
G1 F1200 X32.431 Y131.426 E50.75641
G0 F6000 X32.432 Y130.861
G1 F1200 X31.271 Y129.7 E50.83287
G0 F6000 X31.271 Y129.134
G1 F1200 X32.432 Y130.295 E50.90932
G0 F6000 X32.432 Y129.73
G1 F1200 X31.271 Y128.568 E50.98581
G0 F6000 X31.271 Y128.003
G1 F1200 X32.432 Y129.164 E51.06226
G0 F6000 X32.432 Y128.598
G1 F1200 X31.271 Y127.437 E51.13871
G0 F6000 X31.271 Y126.871
G1 F1200 X32.432 Y128.032 E51.21517
G0 F6000 X32.432 Y127.467
G1 F1200 X31.271 Y126.306 E51.29162
G0 F6000 X31.271 Y125.74
G1 F1200 X32.432 Y126.901 E51.36808
G0 F6000 X32.432 Y126.335
G1 F1200 X31.271 Y125.174 E51.44453
G0 F6000 X31.271 Y124.609
G1 F1200 X32.432 Y125.77 E51.52098
G0 F6000 X32.432 Y125.204
G1 F1200 X31.271 Y124.043 E51.59744
G0 F6000 X31.271 Y123.477
G1 F1200 X32.432 Y124.638 E51.67389
G0 F6000 X32.432 Y124.073
G1 F1200 X31.271 Y122.912 E51.75034
G0 F6000 X31.271 Y122.346
G1 F1200 X32.432 Y123.507 E51.8268
G0 F6000 X32.432 Y122.941
G1 F1200 X31.271 Y121.78 E51.90325
G0 F6000 X31.271 Y121.215
G1 F1200 X32.432 Y122.376 E51.97971
G0 F6000 X32.432 Y121.811
G1 F1200 X31.271 Y120.649 E52.05619
G0 F6000 X31.271 Y120.083
G1 F1200 X32.432 Y121.245 E52.13268
G0 F6000 X32.432 Y120.679
G1 F1200 X31.271 Y119.518 E52.20913
G0 F6000 X31.271 Y118.952
G1 F1200 X32.432 Y120.114 E52.28562
G0 F6000 X32.432 Y119.548
G1 F1200 X31.271 Y118.386 E52.36211
G0 F6000 X31.271 Y117.82
G1 F1200 X32.432 Y118.982 E52.43859
G0 F6000 X32.432 Y118.417
G1 F1200 X31.271 Y117.255 E52.51508
G0 F6000 X31.271 Y116.689
G1 F1200 X32.432 Y117.851 E52.59157
G0 F6000 X32.432 Y117.285
G1 F1200 X31.271 Y116.123 E52.66805
G0 F6000 X31.271 Y115.558
G1 F1200 X32.432 Y116.719 E52.74451
G0 F6000 X32.432 Y116.154
G1 F1200 X31.271 Y114.992 E52.82099
G0 F6000 X31.271 Y114.426
G1 F1200 X32.432 Y115.588 E52.89748
G0 F6000 X32.432 Y115.022
G1 F1200 X31.271 Y113.861 E52.97394
G0 F6000 X31.271 Y113.295
G1 F1200 X32.432 Y114.457 E53.05042
G0 F6000 X32.432 Y113.891
G1 F1200 X31.271 Y112.729 E53.12691
G0 F6000 X31.271 Y112.164
G1 F1200 X32.433 Y113.326 E53.20343
G0 F6000 X32.433 Y112.76
G1 F1200 X31.271 Y111.598 E53.27995
G0 F6000 X31.271 Y111.032
G1 F1200 X32.433 Y112.195 E53.3565
G0 F6000 X32.433 Y111.629
G1 F1200 X31.271 Y110.467 E53.43302
G0 F6000 X31.271 Y109.901
G1 F1200 X32.433 Y111.063 E53.50954
G0 F6000 X32.433 Y110.498
G1 F1200 X31.271 Y109.335 E53.58609
G0 F6000 X31.271 Y108.769
G1 F1200 X32.433 Y109.932 E53.66265
G0 F6000 X32.433 Y109.366
G1 F1200 X31.271 Y108.204 E53.73917
G0 F6000 X31.271 Y107.638
G1 F1200 X32.433 Y108.801 E53.81572
G0 F6000 X32.433 Y108.235
G1 F1200 X31.271 Y107.072 E53.89227
G0 F6000 X31.271 Y106.507
G1 F1200 X32.433 Y107.669 E53.96879
G0 F6000 X32.433 Y107.104
G1 F1200 X31.271 Y105.941 E54.04534
G0 F6000 X31.271 Y105.375
G1 F1200 X32.433 Y106.538 E54.1219
G0 F6000 X32.433 Y105.972
G1 F1200 X31.271 Y104.81 E54.19841
G0 F6000 X31.271 Y104.244
G1 F1200 X32.433 Y105.406 E54.27493
G0 F6000 X32.434 Y104.842
G1 F1200 X31.271 Y103.678 E54.35155
G0 F6000 X31.271 Y103.113
G1 F1200 X32.434 Y104.276 E54.42814
G0 F6000 X32.434 Y103.71
G1 F1200 X31.271 Y102.547 E54.50472
G0 F6000 X31.271 Y101.981
G1 F1200 X32.434 Y103.144 E54.58131
G0 F6000 X32.434 Y102.579
G1 F1200 X31.271 Y101.416 E54.6579
G0 F6000 X31.271 Y100.85
G1 F1200 X32.434 Y102.013 E54.73448
G0 F6000 X32.434 Y101.447
G1 F1200 X31.271 Y100.284 E54.81107
G0 F6000 X31.271 Y99.719
G1 F1200 X32.434 Y100.882 E54.88765
G0 F6000 X32.434 Y100.316
G1 F1200 X31.271 Y99.153 E54.96424
G0 F6000 X31.271 Y98.587
G1 F1200 X32.434 Y99.75 E55.04082
G0 F6000 X32.434 Y99.185
G1 F1200 X31.271 Y98.021 E55.11744
G0 F6000 X31.271 Y97.456
G1 F1200 X32.434 Y98.619 E55.19403
G0 F6000 X32.434 Y98.053
G1 F1200 X31.271 Y96.89 E55.27061
G0 F6000 X31.271 Y96.324
G1 F1200 X32.434 Y97.488 E55.34723
G0 F6000 X32.434 Y96.922
G1 F1200 X31.271 Y95.759 E55.42382
G0 F6000 X31.271 Y95.193
G1 F1200 X32.434 Y96.357 E55.50043
G0 F6000 X32.434 Y95.791
G1 F1200 X31.271 Y94.627 E55.57705
G0 F6000 X31.271 Y94.062
G1 F1200 X32.434 Y95.226 E55.65367
G0 F6000 X32.434 Y94.66
G1 F1200 X31.271 Y93.496 E55.73029
G0 F6000 X31.271 Y92.93
G1 F1200 X32.434 Y94.094 E55.80691
G0 F6000 X32.434 Y93.529
G1 F1200 X31.271 Y92.365 E55.88353
G0 F6000 X31.271 Y91.799
G1 F1200 X32.434 Y92.963 E55.96015
G0 F6000 X32.434 Y92.397
G1 F1200 X31.271 Y91.233 E56.03676
