;FLAVOR:Marlin
;TIME:4302
;Filament used: 2.02225m
;Layer height: 0.16
;MINX:92.1
;MINY:72.8
;MINZ:0.2
;MAXX:139.104
;MAXY:164.2
;MAXZ:5.08
;Generated with Cura_SteamEngine 5.4.0
M140 S60
M105
M190 S60
M104 S225
M105
M109 S225
M82 ;absolute extrusion mode
M201 X500.00 Y500.00 Z100.00 E5000.00 ;Setup machine max acceleration
M203 X500.00 Y500.00 Z10.00 E50.00 ;Setup machine max feedrate
M204 P500.00 R1000.00 T500.00 ;Setup Print/Retract/Travel acceleration
M205 X8.00 Y8.00 Z0.40 E5.00 ;Setup Jerk
M220 S100 ;Reset Feedrate
M221 S100 ;Reset Flowrate

G28 ;Home

G92 E0 ;Reset Extruder
G1 Z2.0 F3000 ;Move Z Axis up
G1 X10.1 Y20 Z0.28 F5000.0 ;Move to start position
G1 X10.1 Y200.0 Z0.28 F1500.0 E15 ;Draw the first line
G1 X10.4 Y200.0 Z0.28 F5000.0 ;Move to side a little
G1 X10.4 Y20 Z0.28 F1500.0 E30 ;Draw the second line
G92 E0 ;Reset Extruder
G1 Z2.0 F3000 ;Move Z Axis up

G92 E0
G92 E0
G1 F1500 E-6.5
;LAYER_COUNT:35
;LAYER:0
M107
G0 F6000 X100.019 Y75.823 Z0.2
;TYPE:SKIRT
G1 F1500 E0
G1 F1200 X101.58 Y74.364 E0.07107
G1 X103.603 Y73.157 E0.14942
G1 X105.321 Y72.875 E0.20732
G1 X127.953 Y72.8 E0.96007
G1 X129.849 Y73.266 E1.02501
G1 X131.877 Y74.319 E1.10101
G1 X133.351 Y75.895 E1.17278
G1 X134.373 Y77.619 E1.23944
G1 X134.576 Y78.101 E1.25684
G1 X134.852 Y79.943 E1.31879
G1 X134.883 Y83.637 E1.44165
G1 X136.033 Y84.877 E1.4979
G1 X137.094 Y86.659 E1.56688
G1 X137.352 Y87.592 E1.59908
G1 X137.592 Y89.378 E1.65901
G1 X137.594 Y89.544 E1.66454
G1 X138.205 Y90.352 E1.69823
G1 X139.104 Y92.822 E1.78565
G1 X139.104 Y97.97 E1.95688
G1 X138.65 Y99.822 E2.0203
G1 X137.711 Y101.641 E2.08838
G1 X137.605 Y101.789 E2.09444
G1 X137.605 Y102.453 E2.11652
G1 X137.139 Y104.349 E2.18146
G1 X136.086 Y106.377 E2.25746
G1 X134.9 Y107.484 E2.31142
G1 X134.9 Y129.443 E3.04178
G1 X136.002 Y130.635 E3.09578
G1 X137.105 Y132.479 E3.16724
G1 X137.359 Y133.41 E3.19934
G1 X137.588 Y135.115 E3.25656
G1 X137.591 Y135.338 E3.26397
G1 X138.201 Y136.144 E3.29759
G1 X139.104 Y138.622 E3.38531
G1 X139.104 Y143.77 E3.55654
G1 X138.65 Y145.622 E3.61996
G1 X137.711 Y147.441 E3.68804
G1 X137.605 Y147.589 E3.6941
G1 X137.604 Y148.253 E3.71618
G1 X137.138 Y150.149 E3.78112
G1 X136.085 Y152.177 E3.85712
G1 X134.9 Y153.284 E3.91106
G1 X134.9 Y157.253 E4.04307
G1 X134.434 Y159.149 E4.10801
G1 X133.381 Y161.177 E4.18401
G1 X131.82 Y162.636 E4.25508
G1 X129.797 Y163.843 E4.33343
G1 X128.079 Y164.125 E4.39133
G1 X105.447 Y164.2 E5.14408
G1 X103.551 Y163.734 E5.20902
G1 X101.523 Y162.681 E5.28502
G1 X100.052 Y161.108 E5.35665
G1 X99.013 Y159.364 E5.42417
G1 X98.83 Y158.929 E5.43987
G1 X98.549 Y157.064 E5.5026
G1 X98.522 Y153.732 E5.61342
G1 X97.886 Y153.556 E5.63537
G1 X96.178 Y152.579 E5.70082
G1 X95.388 Y151.97 E5.73399
G1 X93.907 Y150.405 E5.80566
G1 X93.156 Y149.187 E5.85325
G1 X92.547 Y147.919 E5.90004
G1 X92.187 Y146.071 E5.96266
G1 X92.1 Y144.875 E6.00254
G1 X92.166 Y136.963 E6.2657
G1 X92.37 Y135.74 E6.30694
G1 X92.743 Y134.436 E6.35205
G1 X93.63 Y132.821 E6.41334
G1 X94.527 Y131.659 E6.46216
G1 X95.45 Y130.783 E6.50449
G1 X96.899 Y129.773 E6.56323
G1 X98.178 Y129.11 E6.61115
G1 X98.5 Y129.029 E6.62219
G1 X98.5 Y107.929 E7.32398
G1 X97.92 Y107.774 E7.34395
G1 X96.18 Y106.786 E7.4105
G1 X95.447 Y106.234 E7.44102
G1 X94.078 Y104.901 E7.50457
G1 X93.465 Y104.133 E7.53725
G1 X92.499 Y101.938 E7.61702
G1 X92.191 Y100.313 E7.67203
G1 X92.1 Y99.072 E7.71341
G1 X92.168 Y91.111 E7.97821
G1 X92.362 Y89.964 E8.0169
G1 X92.787 Y88.473 E8.06846
G1 X93.923 Y86.604 E8.14121
G1 X94.826 Y85.551 E8.18735
G1 X95.969 Y84.571 E8.23742
G1 X97.213 Y83.756 E8.28689
G1 X98.5 Y83.3 E8.3323
G1 X98.5 Y79.747 E8.45047
G1 X98.966 Y77.851 E8.51541
G1 X100.019 Y75.823 E8.59141
G0 F6000 X100.342 Y76.068
G1 F1200 X101.819 Y74.688 E8.65865
G1 X103.743 Y73.54 E8.73316
G1 X105.386 Y73.27 E8.78854
G1 X127.907 Y73.2 E9.5376
G1 X129.706 Y73.642 E9.59921
G1 X131.632 Y74.642 E9.67139
G1 X133.027 Y76.134 E9.73933
G1 X134.004 Y77.774 E9.80282
G1 X134.187 Y78.209 E9.81852
G1 X134.456 Y80.002 E9.87882
G1 X134.484 Y83.795 E10.00498
G1 X135.709 Y85.116 E10.0649
G1 X136.723 Y86.818 E10.13079
G1 X136.966 Y87.698 E10.16116
G1 X137.192 Y89.382 E10.21767
G1 X137.195 Y89.68 E10.22758
G1 X137.849 Y90.544 E10.26362
G1 X138.704 Y92.893 E10.34676
G1 X138.704 Y97.92 E10.51396
G1 X138.272 Y99.683 E10.57434
G1 X137.356 Y101.457 E10.64074
G1 X137.205 Y101.652 E10.64894
G1 X137.205 Y102.407 E10.67405
G1 X136.763 Y104.206 E10.73567
G1 X135.763 Y106.132 E10.80785
G1 X134.5 Y107.311 E10.86531
G1 X134.5 Y129.599 E11.60662
G1 X135.681 Y130.877 E11.66449
G1 X136.733 Y132.636 E11.73266
G1 X136.973 Y133.515 E11.76297
G1 X137.188 Y135.119 E11.81679
G1 X137.192 Y135.475 E11.82864
G1 X137.846 Y136.338 E11.86465
G1 X138.704 Y138.693 E11.94801
G1 X138.704 Y143.72 E12.11521
G1 X138.272 Y145.483 E12.17559
G1 X137.356 Y147.257 E12.24199
G1 X137.205 Y147.452 E12.25019
G1 X137.204 Y148.207 E12.2753
G1 X136.762 Y150.006 E12.33692
G1 X135.762 Y151.932 E12.4091
G1 X134.5 Y153.111 E12.46654
G1 X134.5 Y157.207 E12.60277
G1 X134.058 Y159.006 E12.66439
G1 X133.058 Y160.932 E12.73657
G1 X131.581 Y162.312 E12.8038
G1 X129.657 Y163.46 E12.87832
G1 X128.014 Y163.73 E12.9337
G1 X105.493 Y163.8 E13.68275
G1 X103.694 Y163.358 E13.74436
G1 X101.768 Y162.358 E13.81654
G1 X100.376 Y160.869 E13.88434
G1 X99.357 Y159.159 E13.95055
G1 X99.219 Y158.822 E13.96266
G1 X98.945 Y157.004 E14.02381
G1 X98.92 Y153.426 E14.14282
G1 X98.038 Y153.183 E14.17324
G1 X96.421 Y152.261 E14.23515
G1 X95.679 Y151.695 E14.26619
G1 X94.224 Y150.157 E14.33661
G1 X93.517 Y149.014 E14.38131
G1 X92.93 Y147.792 E14.4264
G1 X92.58 Y145.995 E14.48729
G1 X92.5 Y144.878 E14.52454
G1 X92.561 Y137.029 E14.78561
G1 X92.765 Y135.806 E14.82685
G1 X93.113 Y134.594 E14.86879
G1 X93.981 Y133.014 E14.92875
G1 X94.803 Y131.948 E14.97352
G1 X95.679 Y131.111 E15.01382
G1 X97.128 Y130.101 E15.07256
G1 X98.361 Y129.465 E15.11871
G1 X98.9 Y129.357 E15.13699
G1 X98.9 Y107.621 E15.85993
G1 X98.071 Y107.4 E15.88847
G1 X96.421 Y106.466 E15.95153
G1 X95.688 Y105.914 E15.98205
G1 X94.391 Y104.651 E16.04226
G1 X93.809 Y103.922 E16.07329
G1 X92.884 Y101.82 E16.14967
G1 X92.59 Y100.283 E16.20172
G1 X92.5 Y99.075 E16.24201
G1 X92.563 Y91.177 E16.5047
G1 X92.747 Y90.074 E16.5419
G1 X93.158 Y88.632 E16.59177
G1 X94.228 Y86.863 E16.66053
G1 X95.086 Y85.855 E16.70456
G1 X96.229 Y84.875 E16.75463
G1 X97.39 Y84.118 E16.80073
G1 X98.9 Y83.583 E16.85401
G1 X98.9 Y79.793 E16.98007
G1 X99.342 Y77.994 E17.04168
G1 X100.342 Y76.068 E17.11386
G0 F6000 X100.665 Y76.313
G1 F1200 X102.061 Y75.009 E17.1774
G1 X103.881 Y73.923 E17.24789
G1 X105.451 Y73.665 E17.30081
G1 X127.86 Y73.6 E18.04614
G1 X129.564 Y74.019 E18.1045
G1 X131.387 Y74.965 E18.17281
G1 X132.703 Y76.373 E18.23691
G1 X133.66 Y77.979 E18.2991
G1 X133.798 Y78.316 E18.31121
G1 X134.06 Y80.061 E18.3699
G1 X134.085 Y83.979 E18.50021
G1 X134.182 Y84.057 E18.50435
G1 X135.385 Y85.355 E18.56321
G1 X136.352 Y86.977 E18.62602
G1 X136.58 Y87.804 E18.65455
G1 X136.792 Y89.387 E18.70768
G1 X136.797 Y89.816 E18.72195
G1 X137.493 Y90.736 E18.76031
G1 X138.304 Y92.964 E18.83917
G1 X138.304 Y97.874 E19.00248
G1 X137.895 Y99.542 E19.0596
G1 X137.001 Y101.274 E19.12443
G1 X136.805 Y101.505 E19.13451
G1 X136.805 Y102.36 E19.16294
G1 X136.386 Y104.064 E19.22131
G1 X135.44 Y105.887 E19.28962
G1 X134.1 Y107.138 E19.35059
G1 X134.1 Y129.786 E20.10387
G1 X134.201 Y129.866 E20.10815
G1 X135.362 Y131.122 E20.16504
G1 X136.362 Y132.794 E20.22984
G1 X136.577 Y133.569 E20.25659
G1 X136.788 Y135.124 E20.30878
G1 X136.794 Y135.612 E20.32501
G1 X137.491 Y136.532 E20.3634
G1 X138.304 Y138.764 E20.44241
G1 X138.304 Y143.674 E20.60572
G1 X137.895 Y145.342 E20.66284
G1 X137.001 Y147.074 E20.72767
G1 X136.805 Y147.305 E20.73774
G1 X136.804 Y148.16 E20.76618
G1 X136.385 Y149.864 E20.82455
G1 X135.439 Y151.687 E20.89286
G1 X134.1 Y152.938 E20.9538
G1 X134.1 Y157.16 E21.09423
G1 X133.681 Y158.864 E21.15259
G1 X132.735 Y160.687 E21.2209
G1 X131.339 Y161.991 E21.28444
G1 X129.519 Y163.077 E21.35493
G1 X127.949 Y163.335 E21.40785
G1 X105.54 Y163.4 E22.15318
G1 X103.836 Y162.981 E22.21154
G1 X102.013 Y162.035 E22.27985
G1 X100.7 Y160.63 E22.34381
G1 X99.701 Y158.954 E22.40871
G1 X99.606 Y158.711 E22.41739
G1 X99.345 Y157.001 E22.47492
G1 X99.318 Y153.121 E22.60397
G1 X98.191 Y152.81 E22.64286
G1 X96.662 Y151.942 E22.70134
G1 X95.97 Y151.42 E22.73017
G1 X94.542 Y149.911 E22.79927
G1 X93.878 Y148.841 E22.84115
G1 X93.313 Y147.665 E22.88454
G1 X92.973 Y145.919 E22.94371
G1 X92.9 Y144.881 E22.97832
G1 X92.961 Y137.032 E23.23938
G1 X93.149 Y135.916 E23.27702
G1 X93.483 Y134.752 E23.3173
G1 X94.332 Y133.207 E23.37594
G1 X95.119 Y132.193 E23.41863
G1 X95.908 Y131.439 E23.45493
G1 X97.311 Y130.457 E23.51188
G1 X98.496 Y129.846 E23.55623
G1 X99.3 Y129.685 E23.5835
G1 X99.3 Y107.313 E24.3276
G1 X98.221 Y107.026 E24.36473
G1 X96.662 Y106.146 E24.42427
G1 X95.929 Y105.594 E24.45479
G1 X94.671 Y104.365 E24.51329
G1 X94.154 Y103.712 E24.54099
G1 X93.269 Y101.702 E24.61404
G1 X92.989 Y100.253 E24.66312
G1 X92.9 Y99.078 E24.70231
G1 X92.963 Y91.18 E24.96501
G1 X93.132 Y90.184 E24.99861
G1 X93.529 Y88.791 E25.04679
G1 X94.57 Y87.07 E25.11369
G1 X95.347 Y86.158 E25.15353
G1 X96.447 Y85.21 E25.20183
G1 X97.568 Y84.479 E25.24634
G1 X99.3 Y83.866 E25.30745
G1 X99.3 Y79.84 E25.44136
G1 X99.719 Y78.136 E25.49972
G1 X100.665 Y76.313 E25.56803
G0 F6000 X100.988 Y76.558
G1 F1200 X102.303 Y75.33 E25.62788
G1 X104.019 Y74.306 E25.69434
G1 X105.516 Y74.06 E25.7448
G1 X127.814 Y74 E26.48643
G1 X129.421 Y74.395 E26.54147
G1 X131.142 Y75.288 E26.60596
G1 X132.379 Y76.612 E26.66623
G1 X133.316 Y78.184 E26.7271
G1 X133.411 Y78.427 E26.73577
G1 X133.66 Y80.064 E26.79085
G1 X133.686 Y84.198 E26.92835
G1 X133.889 Y84.329 E26.93638
G1 X135.061 Y85.594 E26.99374
G1 X135.981 Y87.136 E27.05346
G1 X136.194 Y87.91 E27.08016
G1 X136.392 Y89.391 E27.12986
G1 X136.398 Y89.953 E27.14855
G1 X137.138 Y90.93 E27.18931
G1 X137.904 Y93.035 E27.26382
G1 X137.904 Y97.824 E27.4231
G1 X137.517 Y99.403 E27.47717
G1 X136.646 Y101.09 E27.54032
G1 X136.405 Y101.345 E27.55199
G1 X136.405 Y102.314 E27.58422
G1 X136.01 Y103.921 E27.63926
G1 X135.117 Y105.642 E27.70375
G1 X133.83 Y106.844 E27.76232
G1 X133.7 Y106.933 E27.76756
G1 X133.7 Y130.005 E28.53494
G1 X133.907 Y130.138 E28.54312
G1 X135.043 Y131.367 E28.59878
G1 X135.99 Y132.951 E28.66017
G1 X136.181 Y133.624 E28.68343
G1 X136.388 Y135.129 E28.73396
G1 X136.395 Y135.749 E28.75458
G1 X137.136 Y136.726 E28.79537
G1 X137.904 Y138.835 E28.87002
G1 X137.904 Y143.624 E29.0293
G1 X137.517 Y145.203 E29.08338
G1 X136.646 Y146.89 E29.14652
G1 X136.405 Y147.145 E29.15819
G1 X136.404 Y148.114 E29.19042
G1 X136.009 Y149.721 E29.24546
G1 X135.116 Y151.442 E29.30995
G1 X133.823 Y152.65 E29.3688
G1 X133.7 Y152.735 E29.37378
G1 X133.7 Y157.114 E29.51942
G1 X133.305 Y158.721 E29.57446
G1 X132.412 Y160.442 E29.63895
G1 X131.097 Y161.67 E29.69879
G1 X129.381 Y162.694 E29.76526
G1 X127.884 Y162.94 E29.81571
G1 X105.586 Y163 E30.55735
G1 X103.979 Y162.605 E30.61239
G1 X102.258 Y161.712 E30.67688
G1 X101.024 Y160.391 E30.737
G1 X100.045 Y158.749 E30.80059
G1 X99.994 Y158.606 E30.80564
G1 X99.745 Y156.998 E30.85976
G1 X99.716 Y152.815 E30.99889
G1 X98.344 Y152.437 E31.04622
G1 X96.901 Y151.621 E31.10136
G1 X96.261 Y151.145 E31.12788
G1 X94.859 Y149.663 E31.19574
G1 X94.239 Y148.668 E31.23473
G1 X93.696 Y147.538 E31.27643
G1 X93.366 Y145.843 E31.33386
G1 X93.3 Y144.884 E31.36584
G1 X93.356 Y137.098 E31.62481
G1 X93.534 Y136.026 E31.66095
G1 X93.855 Y134.906 E31.6997
G1 X94.683 Y133.4 E31.75686
G1 X95.434 Y132.439 E31.79743
G1 X96.138 Y131.766 E31.82982
G1 X97.494 Y130.813 E31.88494
G1 X98.631 Y130.227 E31.92749
G1 X99.7 Y130.012 E31.96376
G1 X99.7 Y107.005 E32.72897
G1 X98.373 Y106.652 E32.77464
G1 X96.903 Y105.826 E32.83072
G1 X96.17 Y105.274 E32.86124
G1 X94.985 Y104.117 E32.91633
G1 X94.499 Y103.503 E32.94237
G1 X93.654 Y101.585 E33.01208
G1 X93.388 Y100.222 E33.05827
G1 X93.3 Y99.081 E33.09633
G1 X93.358 Y91.246 E33.35693
G1 X93.517 Y90.294 E33.38904
G1 X93.9 Y88.951 E33.43549
G1 X94.876 Y87.328 E33.49848
G1 X95.609 Y86.46 E33.53626
G1 X96.666 Y85.545 E33.58276
G1 X97.747 Y84.84 E33.62569
G1 X99.255 Y84.306 E33.67889
G1 X99.7 Y84.215 E33.694
G1 X99.7 Y79.886 E33.83798
G1 X100.095 Y78.279 E33.89302
G1 X100.988 Y76.558 E33.95751
G0 F6000 X101.311 Y76.803
G1 F1200 X102.545 Y75.651 E34.01366
G1 X104.157 Y74.689 E34.0761
G1 X105.581 Y74.455 E34.12409
G1 X127.768 Y74.4 E34.86204
G1 X129.278 Y74.771 E34.91376
G1 X130.897 Y75.611 E34.97442
G1 X132.055 Y76.851 E35.03085
G1 X132.972 Y78.389 E35.09041
G1 X133.023 Y78.532 E35.09546
G1 X133.26 Y80.067 E35.14712
G1 X133.288 Y84.444 E35.2927
G1 X133.596 Y84.601 E35.3042
G1 X134.74 Y85.836 E35.36019
G1 X135.61 Y87.293 E35.41663
G1 X135.798 Y87.964 E35.43981
G1 X135.992 Y89.396 E35.48787
G1 X136 Y90.089 E35.51092
G1 X136.782 Y91.122 E35.55401
G1 X137.504 Y93.106 E35.62424
G1 X137.504 Y97.774 E35.77949
G1 X137.139 Y99.264 E35.83052
G1 X136.291 Y100.906 E35.89198
G1 X136.005 Y101.17 E35.90493
G1 X136.005 Y102.268 E35.94145
G1 X135.634 Y103.778 E35.99316
G1 X134.794 Y105.397 E36.05383
G1 X133.557 Y106.552 E36.11012
G1 X133.3 Y106.705 E36.12007
G1 X133.3 Y130.249 E36.90314
G1 X133.613 Y130.41 E36.91485
G1 X134.724 Y131.612 E36.96929
G1 X135.62 Y133.11 E37.02735
G1 X135.785 Y133.679 E37.04705
G1 X135.988 Y135.134 E37.09591
G1 X135.997 Y135.886 E37.12093
G1 X136.781 Y136.92 E37.16409
G1 X137.504 Y138.906 E37.23438
G1 X137.504 Y143.574 E37.38964
G1 X137.139 Y145.064 E37.44066
G1 X136.291 Y146.706 E37.50213
G1 X136.005 Y146.97 E37.51507
G1 X136.004 Y148.068 E37.55159
G1 X135.633 Y149.578 E37.60331
G1 X134.793 Y151.197 E37.66397
G1 X133.55 Y152.358 E37.72055
G1 X133.3 Y152.507 E37.73023
G1 X133.3 Y157.068 E37.88193
G1 X132.929 Y158.578 E37.93364
G1 X132.089 Y160.197 E37.99431
G1 X130.855 Y161.349 E38.05045
G1 X129.243 Y162.311 E38.11289
G1 X127.819 Y162.545 E38.16089
G1 X105.632 Y162.6 E38.89883
G1 X104.122 Y162.229 E38.95055
G1 X102.503 Y161.389 E39.01121
G1 X101.348 Y160.152 E39.0675
G1 X100.389 Y158.544 E39.12978
G1 X100.145 Y156.995 E39.18193
G1 X100.114 Y152.464 E39.33264
G1 X99.742 Y152.407 E39.34515
G1 X98.498 Y152.064 E39.38807
G1 X97.14 Y151.3 E39.4399
G1 X96.5 Y150.824 E39.46643
G1 X95.177 Y149.418 E39.53064
G1 X94.6 Y148.495 E39.56684
G1 X94.078 Y147.408 E39.60695
G1 X93.765 Y145.815 E39.66094
G1 X93.7 Y144.887 E39.69189
G1 X93.751 Y137.164 E39.94876
G1 X93.929 Y136.092 E39.9849
G1 X94.226 Y135.063 E40.02052
G1 X95.034 Y133.593 E40.07632
G1 X95.748 Y132.687 E40.11468
G1 X96.369 Y132.093 E40.14326
G1 X97.677 Y131.169 E40.19653
G1 X98.766 Y130.608 E40.23727
G1 X100.1 Y130.34 E40.28253
G1 X100.1 Y106.665 E41.06996
G1 X99.786 Y106.615 E41.08054
G1 X98.526 Y106.279 E41.12391
G1 X97.144 Y105.506 E41.17658
G1 X96.411 Y104.954 E41.2071
G1 X95.299 Y103.869 E41.25877
G1 X94.844 Y103.294 E41.28316
G1 X94.039 Y101.467 E41.34956
G1 X93.781 Y100.145 E41.39436
G1 X93.7 Y99.084 E41.42975
G1 X93.753 Y91.311 E41.68829
G1 X93.902 Y90.404 E41.71886
G1 X94.271 Y89.111 E41.76358
G1 X95.219 Y87.534 E41.82478
G1 X95.872 Y86.762 E41.85841
G1 X96.885 Y85.88 E41.90309
G1 X97.926 Y85.201 E41.94442
G1 X99.336 Y84.698 E41.99422
G1 X100.1 Y84.541 E42.02016
G1 X100.1 Y79.932 E42.17345
G1 X100.471 Y78.422 E42.22517
G1 X101.311 Y76.803 E42.28583
G0 F6000 X101.634 Y77.048
G1 F1200 X102.787 Y75.972 E42.33829
G1 X104.295 Y75.072 E42.3967
G1 X105.646 Y74.85 E42.44223
G1 X127.721 Y74.8 E43.17645
G1 X129.136 Y75.148 E43.22492
G1 X130.652 Y75.934 E43.28172
G1 X131.731 Y77.09 E43.33431
