;FLAVOR:Marlin
;TIME:6910
;Filament used: 3.73141m
;Layer height: 0.16
;MINX:71.916
;MINY:23.408
;MINZ:0.2
;MAXX:163.316
;MAXY:222.639
;MAXZ:15.9
;Generated with Cura_SteamEngine 5.4.0
M140 S60
M105
M190 S60
M104 S220
M105
M109 S220
M82 ;absolute extrusion mode
M201 X500.00 Y500.00 Z100.00 E5000.00 ;Setup machine max acceleration
M203 X500.00 Y500.00 Z10.00 E50.00 ;Setup machine max feedrate
M204 P500.00 R1000.00 T500.00 ;Setup Print/Retract/Travel acceleration
M205 X8.00 Y8.00 Z0.40 E5.00 ;Setup Jerk
M220 S100 ;Reset Feedrate
M221 S100 ;Reset Flowrate

G28 ;Home

G92 E0 ;Reset Extruder
G1 Z2.0 F3000 ;Move Z Axis up
G1 X10.1 Y20 Z0.28 F5000.0 ;Move to start position
G1 X10.1 Y200.0 Z0.28 F1500.0 E15 ;Draw the first line
G1 X10.4 Y200.0 Z0.28 F5000.0 ;Move to side a little
G1 X10.4 Y20 Z0.28 F1500.0 E30 ;Draw the second line
G92 E0 ;Reset Extruder
G1 Z2.0 F3000 ;Move Z Axis up

G92 E0
G92 E0
G1 F1500 E-6.5
;LAYER_COUNT:32
;LAYER:0
M107
G0 F6000 X74.656 Y31.304 Z0.2
;TYPE:SKIRT
G1 F1500 E0
G1 F1200 X75.305 Y29.94 E0.05024
G1 X76.343 Y28.647 E0.10539
G1 X77.296 Y27.702 E0.15003
G1 X79.21 Y26.641 E0.22281
G1 X91.858 Y23.414 E0.65696
G1 X146.061 Y23.408 E2.45976
G1 X148.129 Y23.576 E2.52877
G1 X150.026 Y24.187 E2.59506
G1 X151.468 Y24.896 E2.6485
G1 X153.084 Y25.994 E2.71348
G1 X154.407 Y27.427 E2.77835
G1 X155.516 Y29.087 E2.84475
G1 X156.273 Y30.641 E2.90225
G1 X156.731 Y32.895 E2.97875
G1 X156.822 Y34.212 E3.02265
G1 X156.791 Y37.469 E3.13099
G1 X156.578 Y39.031 E3.18342
G1 X156.08 Y40.829 E3.24547
G1 X155.268 Y42.369 E3.30338
G1 X154.21 Y43.926 E3.36599
G1 X152.581 Y45.364 E3.43826
G1 X150.899 Y46.431 E3.50451
G1 X149.497 Y47.078 E3.55587
G1 X147.305 Y47.52 E3.63024
G1 X146.063 Y47.606 E3.67165
G1 X91.858 Y47.6 E5.47451
G1 X79.251 Y44.382 E5.90727
G1 X77.712 Y43.525 E5.96586
G1 X76.602 Y42.727 E6.01133
G1 X75.42 Y41.168 E6.0764
G1 X74.773 Y40.07 E6.11879
G1 X74.222 Y37.949 E6.19167
G1 X74.222 Y33.085 E6.35345
G1 X74.656 Y31.304 E6.41442
G0 F6000 X75.036 Y31.436
G1 F1200 X75.646 Y30.154 E6.46164
G1 X76.625 Y28.931 E6.51374
G1 X77.539 Y28.025 E6.55655
G1 X79.358 Y27.017 E6.62572
G1 X91.91 Y23.814 E7.05658
G1 X146.061 Y23.808 E8.85765
G1 X148.05 Y23.971 E8.92402
G1 X149.903 Y24.568 E8.98877
G1 X151.243 Y25.227 E9.03844
G1 X152.823 Y26.3 E9.10196
G1 X154.074 Y27.649 E9.16315
G1 X155.183 Y29.309 E9.22955
G1 X155.891 Y30.77 E9.28355
G1 X156.332 Y32.923 E9.35665
G1 X156.422 Y34.208 E9.39949
G1 X156.391 Y37.465 E9.50782
G1 X156.193 Y38.924 E9.5568
G1 X155.707 Y40.679 E9.61736
G1 X154.937 Y42.144 E9.67241
G1 X153.907 Y43.659 E9.73334
G1 X152.316 Y45.064 E9.80394
G1 X150.731 Y46.068 E9.86634
G1 X149.372 Y46.695 E9.91612
G1 X147.277 Y47.121 E9.98723
G1 X146.063 Y47.206 E10.0277
G1 X91.91 Y47.2 E11.82884
G1 X79.399 Y44.007 E12.2583
G1 X77.946 Y43.2 E12.31358
G1 X76.882 Y42.435 E12.35716
G1 X75.765 Y40.965 E12.41857
G1 X75.146 Y39.914 E12.45914
G1 X74.622 Y37.898 E12.52842
G1 X74.622 Y33.135 E12.68684
G1 X75.036 Y31.436 E12.745
G0 F6000 X75.416 Y31.568
G1 F1200 X75.987 Y30.368 E12.7892
G1 X76.907 Y29.215 E12.83826
G1 X77.782 Y28.348 E12.87923
G1 X79.506 Y27.392 E12.9448
G1 X91.962 Y24.214 E13.37236
G1 X146.061 Y24.208 E15.1717
G1 X147.971 Y24.366 E15.23544
G1 X149.78 Y24.949 E15.29865
G1 X151.018 Y25.558 E15.34454
G1 X152.562 Y26.607 E15.40663
G1 X153.742 Y27.872 E15.46417
G1 X154.823 Y29.483 E15.52869
G1 X155.509 Y30.898 E15.58099
G1 X155.933 Y32.951 E15.65072
G1 X156.022 Y34.204 E15.6925
G1 X155.991 Y37.461 E15.80083
G1 X155.807 Y38.817 E15.84635
G1 X155.332 Y40.534 E15.9056
G1 X154.606 Y41.919 E15.95761
G1 X153.604 Y43.392 E16.01686
G1 X152.051 Y44.764 E16.08578
G1 X150.563 Y45.705 E16.14434
G1 X149.247 Y46.312 E16.19254
G1 X147.249 Y46.722 E16.26038
G1 X146.063 Y46.806 E16.29993
G1 X91.962 Y46.8 E18.09933
G1 X79.547 Y43.632 E18.52549
G1 X78.18 Y42.875 E18.57746
G1 X77.162 Y42.143 E18.61917
G1 X76.11 Y40.762 E18.67691
G1 X75.519 Y39.758 E18.71566
G1 X75.022 Y37.847 E18.78133
G1 X75.022 Y33.185 E18.93639
G1 X75.416 Y31.568 E18.99174
G0 F6000 X75.796 Y31.7
G1 F1200 X76.327 Y30.584 E19.03285
G1 X77.22 Y29.465 E19.08047
G1 X78.022 Y28.672 E19.11798
G1 X79.654 Y27.767 E19.18005
G1 X92.014 Y24.614 E19.60431
G1 X146.061 Y24.608 E21.40192
G1 X147.892 Y24.761 E21.46303
G1 X149.657 Y25.33 E21.52471
G1 X150.793 Y25.889 E21.56682
G1 X152.299 Y26.912 E21.62737
G1 X153.449 Y28.145 E21.68345
G1 X154.463 Y29.657 E21.744
G1 X155.126 Y31.025 E21.79456
G1 X155.534 Y32.98 E21.86099
G1 X155.622 Y34.2 E21.90167
G1 X155.591 Y37.457 E22.01
G1 X155.421 Y38.71 E22.05206
G1 X154.957 Y40.389 E22.11
G1 X154.252 Y41.733 E22.16048
G1 X153.304 Y43.123 E22.21644
G1 X151.786 Y44.464 E22.28381
G1 X150.395 Y45.342 E22.33852
G1 X149.123 Y45.929 E22.38511
G1 X147.22 Y46.323 E22.44975
G1 X146.063 Y46.406 E22.48833
G1 X92.014 Y46.4 E24.286
G1 X79.693 Y43.256 E24.70893
G1 X78.414 Y42.55 E24.75752
G1 X77.444 Y41.852 E24.79727
G1 X76.455 Y40.559 E24.85141
G1 X75.892 Y39.602 E24.88834
G1 X75.422 Y37.796 E24.95041
G1 X75.422 Y33.235 E25.10211
G1 X75.796 Y31.7 E25.15466
G0 F6000 X76.176 Y31.832
G1 F1200 X76.667 Y30.8 E25.19267
G1 X77.533 Y29.715 E25.23884
G1 X78.264 Y28.995 E25.27297
G1 X79.802 Y28.142 E25.33146
G1 X92.066 Y25.014 E25.75243
G1 X146.061 Y25.008 E27.54831
G1 X147.813 Y25.156 E27.60679
G1 X149.534 Y25.711 E27.66693
G1 X150.568 Y26.22 E27.70526
G1 X152.036 Y27.217 E27.76428
G1 X153.156 Y28.418 E27.8189
G1 X154.103 Y29.832 E27.87551
G1 X154.744 Y31.154 E27.92437
G1 X155.142 Y33.062 E27.9892
G1 X155.222 Y34.196 E28.02701
G1 X155.191 Y37.453 E28.13534
G1 X155.035 Y38.603 E28.17394
G1 X154.582 Y40.242 E28.2305
G1 X153.921 Y41.508 E28.278
G1 X153.002 Y42.856 E28.33226
G1 X151.521 Y44.164 E28.39798
G1 X150.227 Y44.979 E28.44885
G1 X148.999 Y45.546 E28.49383
G1 X147.191 Y45.924 E28.55527
G1 X146.063 Y46.006 E28.59288
G1 X92.066 Y46 E30.38883
G1 X79.842 Y42.881 E30.80843
G1 X78.648 Y42.225 E30.85374
G1 X77.723 Y41.559 E30.89165
G1 X76.8 Y40.356 E30.94208
G1 X76.265 Y39.446 E30.97719
G1 X75.822 Y37.745 E31.03566
G1 X75.822 Y33.285 E31.184
G1 X76.176 Y31.832 E31.23374
G0 F6000 X76.556 Y31.964
G1 F1200 X77.007 Y31.016 E31.26865
G1 X77.846 Y29.965 E31.31338
G1 X78.506 Y29.318 E31.34412
G1 X79.95 Y28.518 E31.39903
G1 X92.118 Y25.414 E31.8167
G1 X146.061 Y25.408 E33.61085
G1 X147.734 Y25.551 E33.6667
G1 X149.411 Y26.092 E33.7253
G1 X150.343 Y26.551 E33.75986
G1 X151.773 Y27.522 E33.81735
G1 X152.863 Y28.691 E33.87051
G1 X153.743 Y30.007 E33.92316
G1 X154.362 Y31.283 E33.97033
G1 X154.75 Y33.144 E34.03356
G1 X154.822 Y34.192 E34.0685
G1 X154.791 Y37.449 E34.17683
G1 X154.649 Y38.496 E34.21198
G1 X154.207 Y40.095 E34.26715
G1 X153.566 Y41.323 E34.31323
G1 X152.699 Y42.591 E34.36432
G1 X151.307 Y43.826 E34.42621
G1 X150.059 Y44.616 E34.47534
G1 X148.871 Y45.165 E34.51886
G1 X147.162 Y45.525 E34.57695
G1 X146.063 Y45.606 E34.6136
G1 X92.118 Y45.6 E36.40782
G1 X79.989 Y42.505 E36.82416
G1 X78.882 Y41.9 E36.86612
G1 X78.004 Y41.268 E36.9021
G1 X77.145 Y40.153 E36.94892
G1 X76.638 Y39.29 E36.98221
G1 X76.222 Y37.694 E37.03706
G1 X76.222 Y33.335 E37.18204
G1 X76.556 Y31.964 E37.22898
G0 F6000 X76.936 Y32.096
G1 F1200 X77.347 Y31.232 E37.2608
G1 X78.159 Y30.215 E37.30408
G1 X78.748 Y29.642 E37.33142
G1 X80.098 Y28.894 E37.38275
G1 X92.17 Y25.814 E37.79713
G1 X146.061 Y25.808 E39.58955
G1 X147.655 Y25.946 E39.64276
G1 X149.288 Y26.473 E39.69984
G1 X150.118 Y26.882 E39.73061
G1 X151.51 Y27.827 E39.78657
G1 X152.57 Y28.964 E39.83827
G1 X153.383 Y30.182 E39.88698
G1 X153.982 Y31.416 E39.9326
G1 X154.351 Y33.172 E39.99228
G1 X154.422 Y34.188 E40.02616
G1 X154.391 Y37.445 E40.13449
G1 X154.263 Y38.389 E40.16617
G1 X153.832 Y39.948 E40.21997
G1 X153.211 Y41.138 E40.26462
G1 X152.395 Y42.326 E40.31255
G1 X151.092 Y43.489 E40.37064
G1 X149.891 Y44.253 E40.41799
G1 X148.743 Y44.783 E40.46004
G1 X147.132 Y45.126 E40.51482
G1 X146.063 Y45.206 E40.55048
G1 X92.17 Y45.2 E42.34297
G1 X80.137 Y42.129 E42.75601
G1 X79.116 Y41.575 E42.79465
G1 X78.284 Y40.976 E42.82875
G1 X77.462 Y39.909 E42.87355
G1 X77.011 Y39.136 E42.90331
G1 X76.622 Y37.643 E42.95463
G1 X76.622 Y33.385 E43.09625
G1 X76.936 Y32.096 E43.14038
G0 F6000 X77.316 Y32.228
G1 F1200 X77.688 Y31.446 E43.16918
G1 X78.438 Y30.502 E43.20928
G1 X78.989 Y29.966 E43.23485
G1 X80.246 Y29.269 E43.28265
G1 X92.222 Y26.214 E43.69373
G1 X146.061 Y26.208 E45.48442
G1 X147.572 Y26.34 E45.53487
G1 X149.165 Y26.854 E45.59054
G1 X149.893 Y27.213 E45.61754
G1 X151.247 Y28.132 E45.67197
G1 X152.277 Y29.237 E45.72221
G1 X153.023 Y30.357 E45.76697
G1 X153.601 Y31.549 E45.81103
G1 X153.952 Y33.2 E45.86717
G1 X154.022 Y34.185 E45.90001
G1 X153.994 Y37.393 E46.00672
G1 X153.877 Y38.283 E46.03657
G1 X153.458 Y39.8 E46.08892
G1 X152.856 Y40.953 E46.13218
G1 X152.094 Y42.059 E46.17685
G1 X150.876 Y43.152 E46.23128
G1 X149.723 Y43.89 E46.27681
G1 X148.616 Y44.401 E46.31737
G1 X147.102 Y44.727 E46.36888
G1 X146.063 Y44.806 E46.40353
G1 X92.222 Y44.8 E48.19429
G1 X80.284 Y41.753 E48.60408
G1 X79.307 Y41.223 E48.64105
G1 X78.564 Y40.685 E48.67156
G1 X77.807 Y39.707 E48.71269
G1 X77.384 Y38.983 E48.74058
G1 X77.022 Y37.592 E48.78839
G1 X77.022 Y33.435 E48.92665
G1 X77.316 Y32.228 E48.96797
G0 F6000 X77.696 Y32.36
G1 F1200 X78.029 Y31.66 E48.99375
G1 X78.717 Y30.789 E49.03067
G1 X79.23 Y30.29 E49.05447
G1 X80.394 Y29.645 E49.09873
G1 X92.274 Y26.614 E49.50652
G1 X146.061 Y26.608 E51.29548
G1 X147.49 Y26.734 E51.3432
G1 X148.99 Y27.214 E51.39558
G1 X149.668 Y27.544 E51.42066
G1 X150.984 Y28.437 E51.47355
G1 X151.944 Y29.459 E51.52019
G1 X152.69 Y30.579 E51.56495
G1 X153.219 Y31.678 E51.60552
G1 X153.553 Y33.229 E51.65829
G1 X153.622 Y34.182 E51.69007
G1 X153.597 Y37.343 E51.7952
G1 X153.491 Y38.176 E51.82313
G1 X153.083 Y39.653 E51.8741
G1 X152.501 Y40.768 E51.91593
G1 X151.793 Y41.792 E51.95734
G1 X150.609 Y42.854 E52.01024
G1 X149.555 Y43.527 E52.05183
G1 X148.489 Y44.019 E52.09088
G1 X147.071 Y44.328 E52.13915
G1 X146.063 Y44.406 E52.17278
G1 X92.274 Y44.4 E53.96181
G1 X80.428 Y41.376 E54.36844
G1 X79.541 Y40.899 E54.40194
G1 X78.847 Y40.397 E54.43043
G1 X78.153 Y39.505 E54.46802
G1 X77.757 Y38.826 E54.49416
G1 X77.422 Y37.541 E54.53833
G1 X77.422 Y33.485 E54.67323
G1 X77.696 Y32.36 E54.71174
G0 F6000 X78.076 Y32.492
G1 F1200 X78.37 Y31.874 E54.7345
G1 X78.996 Y31.076 E54.76824
G1 X79.471 Y30.614 E54.79028
G1 X80.542 Y30.02 E54.83101
G1 X92.326 Y27.014 E55.2355
G1 X146.061 Y27.008 E57.02273
G1 X147.41 Y27.128 E57.06778
G1 X148.815 Y27.574 E57.11681
G1 X149.493 Y27.904 E57.14189
G1 X150.719 Y28.74 E57.19124
G1 X151.652 Y29.733 E57.23656
G1 X152.33 Y30.753 E57.2773
G1 X152.838 Y31.808 E57.31624
G1 X153.154 Y33.258 E57.3656
G1 X153.222 Y34.179 E57.39632
G1 X153.2 Y37.294 E57.49992
G1 X153.105 Y38.069 E57.52589
G1 X152.707 Y39.509 E57.57558
G1 X152.172 Y40.54 E57.61422
G1 X151.49 Y41.526 E57.65409
G1 X150.342 Y42.556 E57.70539
G1 X149.387 Y43.164 E57.74304
G1 X148.363 Y43.637 E57.78056
G1 X147.04 Y43.929 E57.82562
G1 X146.063 Y44.006 E57.85822
G1 X92.326 Y44 E59.64552
G1 X80.573 Y41 E60.04896
G1 X79.775 Y40.575 E60.07903
G1 X79.129 Y40.108 E60.10554
G1 X78.499 Y39.304 E60.13951
G1 X78.13 Y38.671 E60.16388
G1 X77.822 Y37.49 E60.20448
G1 X77.822 Y33.535 E60.33602
G1 X78.076 Y32.492 E60.37173
G0 F6000 X78.456 Y32.624
G1 F1200 X78.711 Y32.088 E60.39147
G1 X79.275 Y31.363 E60.42202
G1 X79.712 Y30.938 E60.44229
G1 X80.69 Y30.396 E60.47948
G1 X92.378 Y27.414 E60.88068
G1 X146.061 Y27.408 E62.66619
G1 X147.327 Y27.522 E62.70846
G1 X148.642 Y27.935 E62.75431
G1 X149.268 Y28.235 E62.77739
G1 X150.457 Y29.045 E62.82525
G1 X151.36 Y30.007 E62.86913
G1 X151.97 Y30.926 E62.90582
G1 X152.456 Y31.936 E62.9431
G1 X152.763 Y33.343 E62.99099
G1 X152.822 Y34.177 E63.0188
G1 X152.803 Y37.247 E63.12091
G1 X152.719 Y37.962 E63.14486
G1 X152.332 Y39.363 E63.1932
G1 X151.843 Y40.312 E63.22871
G1 X151.187 Y41.26 E63.26705
G1 X150.126 Y42.219 E63.31462
G1 X149.219 Y42.801 E63.35046
G1 X148.236 Y43.255 E63.38648
G1 X146.954 Y43.538 E63.43014
G1 X146.063 Y43.606 E63.45986
G1 X92.378 Y43.6 E65.24543
G1 X80.716 Y40.623 E65.64575
G1 X80.01 Y40.251 E65.67229
G1 X79.409 Y39.816 E65.69697
G1 X78.845 Y39.103 E65.72721
G1 X78.503 Y38.516 E65.7498
G1 X78.222 Y37.439 E65.78682
G1 X78.222 Y33.585 E65.91501
G1 X78.456 Y32.624 E65.9479
G0 F6000 X78.836 Y32.756
G1 F1200 X79.052 Y32.302 E65.96463
G1 X79.591 Y31.609 E65.99383
G1 X79.953 Y31.262 E66.0105
G1 X80.838 Y30.771 E66.04417
G1 X92.43 Y27.814 E66.44206
G1 X146.061 Y27.808 E68.22584
G1 X147.245 Y27.916 E68.26538
G1 X148.522 Y28.317 E68.3099
G1 X149.093 Y28.595 E68.33102
G1 X150.194 Y29.35 E68.37542
G1 X151.068 Y30.281 E68.4179
G1 X151.61 Y31.099 E68.45053
G1 X152.074 Y32.064 E68.48615
G1 X152.372 Y33.428 E68.53258
G1 X152.422 Y34.175 E68.55749
G1 X152.405 Y37.203 E68.6582
G1 X152.333 Y37.856 E68.68005
G1 X151.957 Y39.219 E68.72708
G1 X151.514 Y40.084 E68.7594
G1 X150.885 Y40.993 E68.79617
G1 X149.91 Y41.882 E68.84005
G1 X149.003 Y42.464 E68.87589
G1 X148.109 Y42.873 E68.90859
G1 X146.868 Y43.147 E68.95086
G1 X146.063 Y43.206 E68.97771
G1 X92.43 Y43.2 E70.76155
G1 X80.861 Y40.247 E71.15867
G1 X80.197 Y39.897 E71.18364
G1 X79.689 Y39.525 E71.20458
G1 X79.159 Y38.855 E71.23299
G1 X78.876 Y38.362 E71.2519
G1 X78.622 Y37.388 E71.28538
G1 X78.622 Y33.635 E71.4102
G1 X78.836 Y32.756 E71.44029
G0 F6000 X79.216 Y32.888
G1 F1200 X79.394 Y32.514 E71.45407
G1 X79.868 Y31.898 E71.47992
G1 X80.193 Y31.587 E71.49488
G1 X80.986 Y31.147 E71.52505
G1 X92.482 Y28.214 E71.91965
G1 X146.061 Y28.208 E73.7017
G1 X147.164 Y28.31 E73.73854
G1 X148.347 Y28.677 E73.77974
G1 X148.918 Y28.955 E73.80086
G1 X149.932 Y29.655 E73.84184
G1 X150.735 Y30.503 E73.88069
G1 X151.249 Y31.272 E73.91145
G1 X151.694 Y32.198 E73.94562
G1 X151.973 Y33.455 E73.98845
G1 X152.022 Y34.173 E74.01238
G1 X152.007 Y37.159 E74.1117
G1 X151.935 Y37.812 E74.13355
G1 X151.583 Y39.071 E74.17703
G1 X151.185 Y39.856 E74.2063
G1 X150.581 Y40.729 E74.24161
G1 X149.693 Y41.546 E74.28174
G1 X148.837 Y42.1 E74.31566
G1 X147.982 Y42.491 E74.34693
G1 X146.782 Y42.756 E74.3878
G1 X146.063 Y42.806 E74.41177
G1 X92.482 Y42.8 E76.19388
G1 X81.006 Y39.871 E76.58781
G1 X80.384 Y39.543 E76.6112
G1 X79.969 Y39.235 E76.62839
G1 X79.506 Y38.656 E76.65305
G1 X79.249 Y38.209 E76.6702
G1 X79.022 Y37.337 E76.70017
G1 X79.022 Y33.685 E76.82163
G1 X79.216 Y32.888 E76.84892
G0 F6000 X79.596 Y33.02
G1 F1200 X79.736 Y32.726 E76.85975
G1 X80.145 Y32.187 E76.88225
G1 X80.433 Y31.911 E76.89552
G1 X81.134 Y31.522 E76.92218
G1 X92.534 Y28.614 E77.31349
G1 X146.061 Y28.608 E79.0938
G1 X147.082 Y28.704 E79.12791
G1 X148.172 Y29.037 E79.16582
G1 X148.743 Y29.315 E79.18694
G1 X149.667 Y29.958 E79.22438
G1 X150.402 Y30.725 E79.25972
G1 X150.916 Y31.494 E79.29048
G1 X151.314 Y32.33 E79.32128
G1 X151.574 Y33.483 E79.36059
G1 X151.622 Y34.171 E79.38353
G1 X151.609 Y37.115 E79.48145
G1 X151.537 Y37.768 E79.5033
G1 X151.207 Y38.929 E79.54344
G1 X150.856 Y39.628 E79.56946
G1 X150.276 Y40.466 E79.60335
G1 X149.474 Y41.211 E79.63976
G1 X148.671 Y41.736 E79.67167
G1 X147.853 Y42.11 E79.70159
G1 X146.754 Y42.357 E79.73905
G1 X146.063 Y42.406 E79.76209
G1 X92.534 Y42.4 E81.54247
G1 X81.151 Y39.495 E81.93321
G1 X80.571 Y39.189 E81.95502
G1 X80.251 Y38.947 E81.96836
G1 X79.819 Y38.406 E81.99139
G1 X79.622 Y38.055 E82.00478
G1 X79.422 Y37.286 E82.03121
G1 X79.422 Y33.735 E82.14931
G1 X79.596 Y33.02 E82.17379
G0 F6000 X79.985 Y33.115
G1 F1200 X80.055 Y32.968 E82.1792
G1 X80.464 Y32.429 E82.20171
G1 X80.671 Y32.237 E82.2111
G1 X81.282 Y31.898 E82.23434
G1 X92.586 Y29.014 E82.62235
G1 X146.061 Y29.008 E84.40094
