;FLAVOR:Marlin
;TIME:3529
;Filament used: 3.00428m
;Layer height: 0.28
;MINX:24.962
;MINY:73.563
;MINZ:0.28
;MAXX:204.552
;MAXY:171.363
;MAXZ:10.88
;Generated with Cura_SteamEngine 5.4.0
M140 S95
M105
M190 S95
M104 S255
M105
M109 S255
M82 ;absolute extrusion mode
M201 X500.00 Y500.00 Z100.00 E5000.00 ;Setup machine max acceleration
M203 X500.00 Y500.00 Z10.00 E50.00 ;Setup machine max feedrate
M204 P500.00 R1000.00 T500.00 ;Setup Print/Retract/Travel acceleration
M205 X8.00 Y8.00 Z0.40 E5.00 ;Setup Jerk
M220 S100 ;Reset Feedrate
M221 S100 ;Reset Flowrate

G28 ;Home

G92 E0 ;Reset Extruder
G1 Z2.0 F3000 ;Move Z Axis up
G1 X10.1 Y20 Z0.28 F5000.0 ;Move to start position
G1 X10.1 Y200.0 Z0.28 F1500.0 E15 ;Draw the first line
G1 X10.4 Y200.0 Z0.28 F5000.0 ;Move to side a little
G1 X10.4 Y20 Z0.28 F1500.0 E30 ;Draw the second line
G92 E0 ;Reset Extruder
G1 Z2.0 F3000 ;Move Z Axis up

G92 E0
G92 E0
G1 F1500 E-6.5
;LAYER_COUNT:20
;LAYER:0
M107
G0 F6000 X37.334 Y74.794 Z0.28
;TYPE:SKIRT
G1 F1500 E0
G1 F1200 X38.251 Y74.373 E0.04698
G1 X39.169 Y74.049 E0.09231
G1 X40.113 Y73.806 E0.1377
G1 X41.075 Y73.649 E0.18309
G1 X42.067 Y73.576 E0.22941
G1 X42.674 Y73.563 E0.25768
G1 X62.466 Y73.563 E1.17928
G1 X63.347 Y73.576 E1.22031
G1 X64.318 Y73.635 E1.2656
G1 X65.282 Y73.781 E1.311
G1 X66.229 Y74.012 E1.35639
G1 X67.085 Y74.3 E1.39845
G1 X68.041 Y74.719 E1.44705
G1 X68.894 Y75.19 E1.49242
G1 X69.701 Y75.735 E1.53776
G1 X70.458 Y76.349 E1.58315
G1 X71.156 Y77.027 E1.62846
G1 X71.792 Y77.764 E1.67379
G1 X72.361 Y78.554 E1.71913
G1 X72.824 Y79.33 E1.7612
G1 X73.264 Y80.243 E1.80839
G1 X73.71 Y81.478 E1.86954
G1 X73.976 Y82.389 E1.91373
G1 X74.746 Y84.895 E2.0358
G1 X75.545 Y87.256 E2.15186
G1 X76.48 Y89.788 E2.27755
G1 X76.774 Y90.716 E2.32287
G1 X76.986 Y91.667 E2.36824
G1 X77.105 Y92.562 E2.41029
G1 X77.146 Y93.237 E2.44177
G1 X77.161 Y93.893 E2.47233
G1 X77.162 Y104.861 E2.98305
G1 X77.149 Y105.755 E3.02468
G1 X77.092 Y106.71 E3.06923
G1 X77.031 Y107.198 E3.09213
G1 X76.499 Y110.74 E3.25891
G1 X76.199 Y113.258 E3.37698
G1 X75.974 Y115.741 E3.49308
G1 X75.821 Y118.221 E3.60878
G1 X75.736 Y120.753 E3.72674
G1 X75.723 Y123.301 E3.84539
G1 X75.78 Y125.775 E3.96062
G1 X75.91 Y128.307 E4.07868
G1 X76.108 Y130.8 E4.19513
G1 X76.381 Y133.32 E4.31315
G1 X76.727 Y135.852 E4.43215
G1 X77.011 Y137.607 E4.51493
G1 X77.147 Y139.036 E4.58177
G1 X77.162 Y139.693 E4.61238
G1 X77.161 Y150.828 E5.13087
G1 X77.148 Y151.57 E5.16542
G1 X77.087 Y152.542 E5.21077
G1 X76.94 Y153.504 E5.25609
G1 X76.71 Y154.444 E5.30115
G1 X76.457 Y155.211 E5.33876
G1 X75.99 Y156.461 E5.40089
G1 X75.125 Y158.89 E5.52095
G1 X74.361 Y161.25 E5.63646
G1 X73.882 Y162.89 E5.71602
G1 X73.657 Y163.621 E5.75163
G1 X73.328 Y164.535 E5.79686
G1 X72.951 Y165.356 E5.83893
G1 X72.43 Y166.264 E5.88768
G1 X71.871 Y167.061 E5.93301
G1 X71.245 Y167.805 E5.97828
G1 X70.606 Y168.444 E6.02036
G1 X69.805 Y169.113 E6.06896
G1 X69.064 Y169.63 E6.11103
G1 X68.156 Y170.149 E6.15973
G1 X67.271 Y170.553 E6.20503
G1 X66.352 Y170.877 E6.2504
G1 X65.408 Y171.12 E6.29579
G1 X64.447 Y171.276 E6.34113
G1 X63.489 Y171.348 E6.38586
G1 X62.832 Y171.363 E6.41646
G1 X42.912 Y171.362 E7.34402
G1 X42.176 Y171.35 E7.3783
G1 X41.204 Y171.291 E7.42364
G1 X40.241 Y171.145 E7.46899
G1 X39.293 Y170.914 E7.51443
G1 X38.437 Y170.626 E7.55648
G1 X37.481 Y170.207 E7.60508
G1 X36.628 Y169.736 E7.65046
G1 X35.821 Y169.191 E7.6958
G1 X35.066 Y168.578 E7.74109
G1 X34.367 Y167.9 E7.78643
G1 X33.73 Y167.162 E7.83182
G1 X33.159 Y166.368 E7.87736
G1 X32.638 Y165.482 E7.92522
G1 X32.178 Y164.602 E7.97146
G1 X31.669 Y163.595 E8.024
G1 X30.479 Y161.398 E8.14035
G1 X29.211 Y159.206 E8.25826
G1 X27.878 Y157.047 E8.37641
G1 X26.928 Y155.571 E8.45815
G1 X26.319 Y154.488 E8.516
G1 X26.102 Y154.04 E8.53918
G1 X25.732 Y153.177 E8.5829
G1 X25.418 Y152.217 E8.62993
G1 X25.201 Y151.273 E8.67504
G1 X25.08 Y150.443 E8.71409
G1 X25.029 Y149.946 E8.73736
G1 X24.971 Y148.963 E8.78321
G1 X24.962 Y148.206 E8.81846
G1 X24.963 Y142.415 E9.08811
G1 X24.975 Y141.672 E9.12272
G1 X25.015 Y140.899 E9.15876
G1 X25.041 Y140.609 E9.17232
G1 X25.18 Y139.594 E9.22002
G1 X25.331 Y138.782 E9.25848
G1 X25.773 Y136.196 E9.38064
G1 X26.124 Y133.716 E9.49727
G1 X26.405 Y131.228 E9.61386
G1 X26.621 Y128.697 E9.73214
G1 X26.76 Y126.203 E9.84845
G1 X26.831 Y123.668 E9.96654
G1 X26.831 Y121.155 E10.08355
G1 X26.758 Y118.612 E10.20202
G1 X26.617 Y116.163 E10.31624
G1 X26.4 Y113.596 E10.4362
G1 X26.122 Y111.166 E10.55009
G1 X25.758 Y108.617 E10.66998
G1 X25.177 Y105.317 E10.82601
G1 X25.075 Y104.592 E10.8601
G1 X25.029 Y104.141 E10.88121
G1 X24.971 Y103.163 E10.92683
G1 X24.962 Y102.406 E10.96208
G1 X24.963 Y96.611 E11.23192
G1 X24.975 Y95.883 E11.26582
G1 X25.026 Y94.969 E11.30845
G1 X25.14 Y94.038 E11.35212
G1 X25.321 Y93.17 E11.39341
G1 X25.407 Y92.834 E11.40956
G1 X25.689 Y91.903 E11.45486
G1 X26.037 Y91.032 E11.49853
G1 X26.162 Y90.755 E11.51268
G1 X26.583 Y89.925 E11.55602
G1 X26.889 Y89.411 E11.58387
G1 X27.707 Y88.154 E11.65371
G1 X29.04 Y86.01 E11.77126
G1 X30.304 Y83.845 E11.888
G1 X31.535 Y81.592 E12.00754
G1 X32.598 Y79.525 E12.11577
G1 X33.093 Y78.666 E12.16194
G1 X33.651 Y77.868 E12.20728
G1 X34.254 Y77.148 E12.25101
G1 X34.969 Y76.436 E12.298
G1 X35.718 Y75.814 E12.34333
G1 X36.519 Y75.258 E12.38873
G1 X37.334 Y74.794 E12.4324
G0 F6000 X37.532 Y75.142
G1 F1200 X38.385 Y74.75 E12.47612
G1 X39.269 Y74.436 E12.5198
G1 X40.178 Y74.201 E12.56352
G1 X41.105 Y74.048 E12.60727
G1 X42.076 Y73.976 E12.6526
G1 X42.683 Y73.963 E12.68087
G1 X62.46 Y73.963 E13.60177
G1 X63.323 Y73.975 E13.64196
G1 X64.259 Y74.031 E13.68563
G1 X65.188 Y74.17 E13.72936
G1 X66.101 Y74.391 E13.77311
G1 X66.957 Y74.679 E13.81516
G1 X67.848 Y75.069 E13.86045
G1 X68.671 Y75.522 E13.90419
G1 X69.45 Y76.046 E13.94791
G1 X70.18 Y76.636 E13.99162
G1 X70.854 Y77.289 E14.03531
G1 X71.468 Y77.998 E14.07899
G1 X72.017 Y78.759 E14.12268
G1 X72.48 Y79.535 E14.16476
G1 X72.888 Y80.379 E14.20841
G1 X73.326 Y81.59 E14.26837
G1 X73.592 Y82.501 E14.31256
G1 X74.367 Y85.023 E14.43542
G1 X75.17 Y87.395 E14.55203
G1 X76.099 Y89.909 E14.67683
G1 X76.384 Y90.803 E14.72052
G1 X76.589 Y91.72 E14.76427
G1 X76.708 Y92.615 E14.80631
G1 X76.746 Y93.246 E14.83575
G1 X76.761 Y93.893 E14.86588
G1 X76.762 Y104.856 E15.37637
G1 X76.75 Y105.731 E15.41711
G1 X76.695 Y106.66 E15.46045
G1 X76.635 Y107.139 E15.48293
G1 X76.103 Y110.681 E15.64971
G1 X75.802 Y113.211 E15.76835
G1 X75.576 Y115.705 E15.88495
G1 X75.421 Y118.208 E16.00173
G1 X75.336 Y120.74 E16.11969
G1 X75.323 Y123.299 E16.23885
G1 X75.38 Y125.784 E16.35459
G1 X75.511 Y128.339 E16.47372
G1 X75.71 Y130.843 E16.59069
G1 X75.983 Y133.363 E16.70871
G1 X76.332 Y135.916 E16.8287
G1 X76.616 Y137.671 E16.91148
G1 X76.747 Y139.045 E16.97575
G1 X76.762 Y139.693 E17.00593
G1 X76.761 Y150.821 E17.5241
G1 X76.749 Y151.546 E17.55786
G1 X76.692 Y152.482 E17.60153
G1 X76.551 Y153.41 E17.64524
G1 X76.33 Y154.319 E17.6888
G1 X76.082 Y155.071 E17.72567
G1 X75.615 Y156.321 E17.7878
G1 X74.748 Y158.756 E17.90816
G1 X73.98 Y161.127 E18.02421
G1 X73.5 Y162.773 E18.10405
G1 X73.281 Y163.486 E18.13878
G1 X72.964 Y164.368 E18.18242
G1 X72.587 Y165.189 E18.22449
G1 X72.102 Y166.035 E18.26989
G1 X71.565 Y166.804 E18.31357
G1 X70.962 Y167.522 E18.35723
G1 X70.323 Y168.161 E18.39931
G1 X69.576 Y168.785 E18.44463
G1 X68.835 Y169.302 E18.4867
G1 X67.989 Y169.785 E18.53206
G1 X67.137 Y170.176 E18.57571
G1 X66.252 Y170.49 E18.61944
G1 X65.343 Y170.725 E18.66316
G1 X64.417 Y170.877 E18.70685
G1 X63.48 Y170.948 E18.75061
G1 X62.832 Y170.963 E18.78079
G1 X42.918 Y170.962 E19.70807
G1 X42.2 Y170.951 E19.74151
G1 X41.263 Y170.895 E19.78522
G1 X40.335 Y170.756 E19.82891
G1 X39.421 Y170.535 E19.8727
G1 X38.565 Y170.247 E19.91475
G1 X37.674 Y169.857 E19.96004
G1 X36.851 Y169.404 E20.00378
G1 X36.073 Y168.88 E20.04746
G1 X35.344 Y168.29 E20.09113
G1 X34.669 Y167.638 E20.13483
G1 X34.054 Y166.928 E20.17857
G1 X33.504 Y166.165 E20.22237
G1 X32.983 Y165.279 E20.27023
G1 X32.535 Y164.422 E20.31525
G1 X32.026 Y163.415 E20.36779
G1 X30.831 Y161.208 E20.48466
G1 X29.557 Y159.006 E20.60312
G1 X28.214 Y156.83 E20.72219
G1 X27.277 Y155.375 E20.80277
G1 X26.668 Y154.292 E20.86063
G1 X26.47 Y153.882 E20.88183
G1 X26.1 Y153.019 E20.92555
G1 X25.808 Y152.127 E20.96925
G1 X25.597 Y151.215 E21.01284
G1 X25.478 Y150.401 E21.05115
G1 X25.428 Y149.922 E21.07357
G1 X25.371 Y148.958 E21.11854
G1 X25.362 Y148.206 E21.15356
G1 X25.363 Y142.421 E21.42293
G1 X25.374 Y141.693 E21.45683
G1 X25.413 Y140.934 E21.49222
G1 X25.437 Y140.663 E21.50489
G1 X25.573 Y139.667 E21.5517
G1 X25.724 Y138.855 E21.59016
G1 X26.167 Y136.263 E21.7126
G1 X26.52 Y133.772 E21.82975
G1 X26.804 Y131.262 E21.94737
G1 X27.019 Y128.731 E22.06565
G1 X27.16 Y126.214 E22.18304
G1 X27.231 Y123.679 E22.30113
G1 X27.231 Y121.155 E22.41865
G1 X27.158 Y118.601 E22.53763
G1 X27.016 Y116.129 E22.65292
G1 X26.798 Y113.562 E22.77288
G1 X26.518 Y111.109 E22.88785
G1 X26.154 Y108.56 E23.00774
G1 X25.573 Y105.261 E23.16372
G1 X25.473 Y104.551 E23.19711
G1 X25.428 Y104.117 E23.21743
G1 X25.371 Y103.158 E23.26216
G1 X25.362 Y102.406 E23.29718
G1 X25.363 Y96.617 E23.56674
G1 X25.374 Y95.905 E23.5999
G1 X25.423 Y95.018 E23.64126
G1 X25.537 Y94.087 E23.68494
G1 X25.709 Y93.268 E23.72391
G1 X25.79 Y92.949 E23.73923
G1 X26.06 Y92.051 E23.7829
G1 X26.401 Y91.197 E23.82571
G1 X26.519 Y90.936 E23.83905
G1 X26.927 Y90.13 E23.88112
G1 X27.233 Y89.616 E23.90897
G1 X28.047 Y88.365 E23.97847
G1 X29.38 Y86.221 E24.09602
G1 X30.655 Y84.037 E24.21378
G1 X31.886 Y81.784 E24.33333
G1 X32.945 Y79.724 E24.44118
G1 X33.421 Y78.895 E24.4857
G1 X33.958 Y78.125 E24.52941
G1 X34.561 Y77.405 E24.57314
G1 X35.225 Y76.743 E24.6168
G1 X35.946 Y76.142 E24.66051
G1 X36.717 Y75.606 E24.70423
G1 X37.532 Y75.142 E24.7479
G0 F6000 X37.699 Y75.505
G1 F1200 X38.52 Y75.127 E24.78999
G1 X39.37 Y74.823 E24.83202
G1 X40.244 Y74.596 E24.87407
G1 X41.135 Y74.447 E24.91613
G1 X42.085 Y74.376 E24.96049
G1 X42.692 Y74.363 E24.98876
G1 X62.455 Y74.363 E25.90901
G1 X63.3 Y74.374 E25.94836
G1 X64.201 Y74.427 E25.99039
G1 X65.095 Y74.559 E26.03247
G1 X65.973 Y74.77 E26.07452
G1 X66.829 Y75.058 E26.11657
G1 X67.656 Y75.42 E26.15861
G1 X68.448 Y75.854 E26.20066
G1 X69.199 Y76.357 E26.24275
G1 X69.902 Y76.924 E26.2848
G1 X70.552 Y77.551 E26.32686
G1 X71.144 Y78.233 E26.36891
G1 X71.673 Y78.964 E26.41093
G1 X72.136 Y79.74 E26.453
G1 X72.528 Y80.553 E26.49503
G1 X72.942 Y81.703 E26.55194
G1 X73.209 Y82.614 E26.59615
G1 X73.988 Y85.151 E26.71972
G1 X74.795 Y87.534 E26.83688
G1 X75.718 Y90.031 E26.96084
G1 X75.994 Y90.891 E27.00289
G1 X76.192 Y91.773 E27.04499
G1 X76.311 Y92.668 E27.08703
G1 X76.346 Y93.255 E27.11441
G1 X76.361 Y93.893 E27.14412
G1 X76.362 Y104.851 E27.65438
G1 X76.351 Y105.708 E27.69428
G1 X76.298 Y106.61 E27.73636
G1 X76.239 Y107.08 E27.75841
G1 X75.707 Y110.622 E27.92519
G1 X75.405 Y113.164 E28.04439
G1 X75.178 Y115.669 E28.16151
G1 X75.021 Y118.195 E28.27936
G1 X74.936 Y120.727 E28.39733
G1 X74.923 Y123.297 E28.517
G1 X74.98 Y125.793 E28.63326
G1 X75.112 Y128.371 E28.75346
G1 X75.312 Y130.886 E28.87093
G1 X75.585 Y133.406 E28.98896
G1 X75.937 Y135.98 E29.10993
G1 X76.221 Y137.735 E29.19272
G1 X76.347 Y139.054 E29.25441
G1 X76.362 Y139.693 E29.28418
G1 X76.361 Y150.815 E29.80206
G1 X76.35 Y151.522 E29.83499
G1 X76.296 Y152.423 E29.87702
G1 X76.162 Y153.316 E29.91907
G1 X75.95 Y154.194 E29.96112
G1 X75.707 Y154.931 E29.99726
G1 X75.24 Y156.181 E30.05939
G1 X74.372 Y158.622 E30.18003
G1 X73.596 Y161.015 E30.29717
G1 X73.118 Y162.655 E30.37671
G1 X72.904 Y163.351 E30.41062
G1 X72.6 Y164.201 E30.45265
G1 X72.223 Y165.022 E30.49472
G1 X71.774 Y165.806 E30.53679
G1 X71.258 Y166.547 E30.57884
G1 X70.679 Y167.239 E30.62085
G1 X70.04 Y167.878 E30.66293
G1 X69.347 Y168.457 E30.70498
G1 X68.606 Y168.974 E30.74705
G1 X67.822 Y169.422 E30.7891
G1 X67.002 Y169.799 E30.83112
G1 X66.151 Y170.103 E30.8732
G1 X65.277 Y170.33 E30.91525
G1 X64.386 Y170.478 E30.9573
G1 X63.471 Y170.548 E31.00004
G1 X62.832 Y170.563 E31.0298
G1 X42.924 Y170.562 E31.9568
G1 X42.223 Y170.552 E31.98944
G1 X41.321 Y170.499 E32.03152
G1 X40.428 Y170.367 E32.07355
G1 X39.549 Y170.156 E32.11564
G1 X38.693 Y169.868 E32.1577
G1 X37.866 Y169.506 E32.19973
G1 X37.074 Y169.072 E32.24179
G1 X36.324 Y168.569 E32.28384
G1 X35.621 Y168.002 E32.32589
G1 X34.971 Y167.376 E32.36791
G1 X34.378 Y166.694 E32.40999
G1 X33.849 Y165.962 E32.45205
G1 X33.328 Y165.076 E32.49991
G1 X32.892 Y164.242 E32.54373
G1 X32.383 Y163.235 E32.59627
G1 X31.183 Y161.018 E32.71365
G1 X29.903 Y158.806 E32.83266
G1 X28.55 Y156.613 E32.95264
G1 X27.626 Y155.179 E33.03208
G1 X27.017 Y154.096 E33.08993
G1 X26.837 Y153.724 E33.10918
G1 X26.48 Y152.894 E33.15125
G1 X26.198 Y152.036 E33.1933
G1 X25.993 Y151.157 E33.23533
G1 X25.876 Y150.359 E33.27289
G1 X25.827 Y149.898 E33.29447
G1 X25.771 Y148.953 E33.33855
G1 X25.762 Y148.206 E33.37334
G1 X25.763 Y142.427 E33.64243
G1 X25.773 Y141.713 E33.67568
G1 X25.811 Y140.969 E33.71037
G1 X25.833 Y140.717 E33.72215
G1 X25.966 Y139.74 E33.76806
G1 X26.117 Y138.928 E33.80652
G1 X26.561 Y136.33 E33.92925
G1 X26.916 Y133.828 E34.04692
G1 X27.203 Y131.296 E34.16558
G1 X27.417 Y128.765 E34.28385
G1 X27.56 Y126.225 E34.40231
G1 X27.631 Y123.69 E34.5204
G1 X27.631 Y121.155 E34.63844
G1 X27.558 Y118.59 E34.75792
G1 X27.415 Y116.095 E34.87429
G1 X27.196 Y113.528 E34.99426
G1 X26.914 Y111.052 E35.11029
G1 X26.55 Y108.503 E35.23019
G1 X25.969 Y105.205 E35.38612
G1 X25.871 Y104.509 E35.41885
G1 X25.827 Y104.093 E35.43833
G1 X25.771 Y103.153 E35.48218
G1 X25.762 Y102.406 E35.51696
G1 X25.763 Y96.623 E35.78625
G1 X25.773 Y95.927 E35.81866
G1 X25.82 Y95.066 E35.85881
G1 X25.929 Y94.169 E35.90088
G1 X26.097 Y93.366 E35.93908
G1 X26.173 Y93.064 E35.95359
G1 X26.432 Y92.199 E35.99563
G1 X26.766 Y91.361 E36.03764
G1 X26.876 Y91.117 E36.0501
G1 X27.284 Y90.311 E36.09216
G1 X27.57 Y89.832 E36.11814
G1 X28.018 Y89.132 E36.15684
G1 X28.387 Y88.576 E36.18791
G1 X29.72 Y86.432 E36.30547
G1 X31.006 Y84.229 E36.42425
G1 X32.237 Y81.976 E36.5438
G1 X33.301 Y79.907 E36.65213
G1 X33.749 Y79.123 E36.69418
G1 X34.265 Y78.381 E36.73626
G1 X34.844 Y77.688 E36.77831
G1 X35.482 Y77.05 E36.82032
G1 X36.175 Y76.47 E36.8624
G1 X36.916 Y75.953 E36.90448
G1 X37.699 Y75.505 E36.94648
G1 F1500 E30.44648
G0 F6000 X63.815 Y83.91
G0 X64.162 Y93.763
G1 F1500 E36.94648
G1 F1200 X65.961 Y93.763 E37.03025
G1 X65.962 Y105.363 E37.57039
G1 X64.162 Y105.363 E37.65421
G1 X64.162 Y93.763 E38.19436
G0 F6000 X64.562 Y94.163
G1 F1200 X65.561 Y94.163 E38.24087
G1 X65.562 Y104.963 E38.74377
G1 X64.562 Y104.963 E38.79033
G1 X64.562 Y94.163 E39.29322
G0 F6000 X64.962 Y94.563
G1 F1200 X65.161 Y94.563 E39.30249
G1 X65.162 Y104.563 E39.76813
G1 X64.962 Y104.563 E39.77744
G1 X64.962 Y94.563 E40.24309
G1 F1500 E33.74309
G0 F6000 X64.162 Y139.563
G1 F1500 E40.24309
G1 F1200 X65.962 Y139.563 E40.3269
G1 X65.962 Y151.163 E40.86705
G1 X64.162 Y151.163 E40.95086
G1 X64.162 Y139.563 E41.49101
G0 F6000 X64.562 Y139.963
G1 F1200 X65.562 Y139.963 E41.53757
G1 X65.562 Y150.763 E42.04046
G1 X64.562 Y150.763 E42.08703
G1 X64.562 Y139.963 E42.58992
G0 F6000 X64.962 Y140.363
G1 F1200 X65.162 Y140.363 E42.59923
G1 X65.162 Y150.363 E43.06488
G1 X64.962 Y150.363 E43.07419
G1 X64.962 Y140.363 E43.53983
G1 F1500 E37.03983
;MESH:Dice_v2 - BatteryLid^Dice_v2-1.STL
G0 F6000 X54.088 Y140.795
G0 X53.634 Y140.891
G0 X53.878 Y140.782
;TYPE:WALL-INNER
G1 F1500 E43.53983
G1 F1111.1 X53.825 Y140.716 E43.54409
G1 X53.554 Y140.701 E43.55774
G1 F1108.5 X53.452 Y140.756 E43.56358
