;FLAVOR:Marlin
;TIME:14614
;Filament used: 14.2777m
;Layer height: 0.28
;MINX:47.5
;MINY:55.45
;MINZ:0.28
;MAXX:187.5
;MAXY:181.647
;MAXZ:10.24
;Generated with Cura_SteamEngine 5.4.0
M140 S95
M105
M190 S95
M104 S255
M105
M109 S255
M82 ;absolute extrusion mode
M201 X500.00 Y500.00 Z100.00 E5000.00 ;Setup machine max acceleration
M203 X500.00 Y500.00 Z10.00 E50.00 ;Setup machine max feedrate
M204 P500.00 R1000.00 T500.00 ;Setup Print/Retract/Travel acceleration
M205 X8.00 Y8.00 Z0.40 E5.00 ;Setup Jerk
M220 S100 ;Reset Feedrate
M221 S100 ;Reset Flowrate

G28 ;Home

G92 E0 ;Reset Extruder
G1 Z2.0 F3000 ;Move Z Axis up
G1 X10.1 Y20 Z0.28 F5000.0 ;Move to start position
G1 X10.1 Y200.0 Z0.28 F1500.0 E15 ;Draw the first line
G1 X10.4 Y200.0 Z0.28 F5000.0 ;Move to side a little
G1 X10.4 Y20 Z0.28 F1500.0 E30 ;Draw the second line
G92 E0 ;Reset Extruder
G1 Z2.0 F3000 ;Move Z Axis up

G92 E0
G92 E0
G1 F1500 E-6.5
;LAYER_COUNT:41
;LAYER:0
M107
G0 F6000 X50.956 Y58.463 Z0.28
;TYPE:SKIRT
G1 F1500 E0
G1 F1200 X51.692 Y57.826 E0.04532
G1 X52.424 Y57.296 E0.08741
G1 X53.321 Y56.761 E0.13604
G1 X54.199 Y56.34 E0.18138
G1 X55.112 Y55.998 E0.22678
G1 X56.049 Y55.739 E0.27204
G1 X57.016 Y55.561 E0.31783
G1 X58.155 Y55.465 E0.37105
G1 X58.812 Y55.45 E0.40165
G1 X67.403 Y55.45 E0.80169
G1 X68.272 Y55.461 E0.84215
G1 X68.87 Y55.488 E0.87003
G1 X69.863 Y55.558 E0.91638
G1 X70.915 Y55.649 E0.96555
G1 X73.367 Y55.787 E1.07991
G1 X77.316 Y55.87 E1.26383
G1 X157.759 Y55.87 E5.00959
G1 X160.343 Y55.833 E5.12992
G1 X162.893 Y55.725 E5.24877
G1 X165.973 Y55.499 E5.39257
G1 X166.606 Y55.463 E5.4221
G1 X167.23 Y55.45 E5.45116
G1 X175.951 Y55.451 E5.85724
G1 X176.684 Y55.463 E5.89138
G1 X177.656 Y55.522 E5.93672
G1 X178.619 Y55.668 E5.98208
G1 X179.566 Y55.899 E6.02747
G1 X180.454 Y56.199 E6.07111
G1 X181.346 Y56.589 E6.11644
G1 X182.229 Y57.076 E6.1634
G1 X182.98 Y57.578 E6.20546
G1 X183.795 Y58.236 E6.25424
G1 X184.493 Y58.914 E6.29955
G1 X185.129 Y59.651 E6.34488
G1 X185.699 Y60.441 E6.39024
G1 X186.161 Y61.217 E6.43229
G1 X186.615 Y62.159 E6.48098
G1 X186.944 Y63.037 E6.52464
G1 X187.213 Y64.009 E6.5716
G1 X187.39 Y64.975 E6.61733
G1 X187.485 Y66.105 E6.67014
G1 X187.5 Y66.78 E6.70158
G1 X187.499 Y94.016 E7.9698
G1 X187.481 Y95.039 E8.01744
G1 X187.389 Y96.915 E8.1049
G1 X187.317 Y99.433 E8.2222
G1 X187.317 Y101.942 E8.33903
G1 X187.389 Y104.521 E8.45916
G1 X187.483 Y106.373 E8.54551
G1 X187.496 Y106.901 E8.5701
G1 X187.5 Y128.869 E9.59302
G1 X187.481 Y130.039 E9.64751
G1 X187.389 Y131.915 E9.73497
G1 X187.317 Y134.433 E9.85227
G1 X187.317 Y136.942 E9.9691
G1 X187.389 Y139.521 E10.08923
G1 X187.483 Y141.373 E10.17558
G1 X187.496 Y141.902 E10.20022
G1 X187.5 Y169.118 E11.46751
G1 X187.487 Y170.026 E11.5098
G1 X187.429 Y170.998 E11.55514
G1 X187.283 Y171.962 E11.60054
G1 X187.052 Y172.908 E11.64588
G1 X186.739 Y173.83 E11.69122
G1 X186.347 Y174.72 E11.7365
G1 X185.896 Y175.543 E11.7802
G1 X185.334 Y176.381 E11.82719
G1 X184.743 Y177.112 E11.87096
G1 X184.041 Y177.837 E11.91795
G1 X183.305 Y178.474 E11.96327
G1 X182.574 Y179.004 E12.00532
G1 X181.676 Y179.539 E12.05399
G1 X180.798 Y179.96 E12.09933
G1 X179.886 Y180.301 E12.14467
G1 X178.947 Y180.561 E12.19004
G1 X177.982 Y180.738 E12.23572
G1 X176.819 Y180.835 E12.29006
G1 X175.815 Y180.865 E12.33684
G1 X173.204 Y180.98 E12.45853
G1 X170.664 Y181.163 E12.57711
G1 X168.126 Y181.417 E12.69588
G1 X166.914 Y181.562 E12.75272
G1 X165.806 Y181.637 E12.80443
G1 X165.143 Y181.647 E12.83531
G1 X164.171 Y181.636 E12.88057
G1 X163.202 Y181.577 E12.92577
G1 X162.37 Y181.456 E12.96492
G1 X161.797 Y181.35 E12.99206
G1 X159.245 Y180.916 E13.1126
G1 X156.741 Y180.561 E13.23036
G1 X154.239 Y180.28 E13.34759
G1 X151.721 Y180.066 E13.46527
G1 X149.276 Y179.93 E13.57929
G1 X145.389 Y179.85 E13.76032
G1 X89.581 Y179.85 E16.35898
G1 X86.997 Y179.887 E16.47931
G1 X84.429 Y179.996 E16.599
G1 X81.955 Y180.171 E16.71449
G1 X79.483 Y180.416 E16.83016
G1 X76.92 Y180.744 E16.95047
G1 X74.451 Y181.133 E17.06686
G1 X72.624 Y181.463 E17.15331
G1 X71.631 Y181.594 E17.19995
G1 X70.843 Y181.637 E17.23669
G1 X69.888 Y181.647 E17.28116
G1 X69.269 Y181.636 E17.30999
G1 X68.243 Y181.568 E17.35787
G1 X65.459 Y181.255 E17.48832
G1 X62.913 Y181.039 E17.6073
G1 X60.445 Y180.903 E17.7224
G1 X58.148 Y180.834 E17.8294
G1 X57.177 Y180.759 E17.87475
G1 X56.286 Y180.613 E17.91679
G1 X55.274 Y180.352 E17.96546
G1 X54.357 Y180.026 E18.01078
G1 X53.503 Y179.635 E18.05451
G1 X52.627 Y179.135 E18.10148
G1 X51.884 Y178.621 E18.14355
G1 X51.081 Y177.952 E18.19221
G1 X50.417 Y177.289 E18.23591
G1 X49.768 Y176.516 E18.28291
G1 X49.212 Y175.718 E18.32819
G1 X48.745 Y174.904 E18.37189
G1 X48.349 Y174.053 E18.4156
G1 X47.995 Y173.068 E18.46434
G1 X47.752 Y172.127 E18.50959
G1 X47.59 Y171.163 E18.55511
G1 X47.515 Y170.161 E18.6019
G1 X47.5 Y169.504 E18.6325
G1 X47.501 Y142.284 E19.89997
G1 X47.519 Y141.269 E19.94724
G1 X47.614 Y139.315 E20.03834
G1 X47.683 Y136.79 E20.15596
G1 X47.681 Y134.271 E20.27325
G1 X47.606 Y131.715 E20.39232
G1 X47.529 Y130.284 E20.45905
G1 X47.504 Y129.4 E20.50023
G1 X47.5 Y107.43 E21.52324
G1 X47.519 Y106.269 E21.57731
G1 X47.614 Y104.315 E21.66841
G1 X47.683 Y101.79 E21.78602
G1 X47.681 Y99.271 E21.90332
G1 X47.606 Y96.715 E22.02239
G1 X47.529 Y95.284 E22.08912
G1 X47.504 Y94.399 E22.13034
G1 X47.5 Y67.115 E23.4008
G1 X47.512 Y66.275 E23.43992
G1 X47.57 Y65.302 E23.48531
G1 X47.716 Y64.339 E23.53066
G1 X47.946 Y63.393 E23.57599
G1 X48.259 Y62.47 E23.62138
G1 X48.651 Y61.58 E23.66666
G1 X49.121 Y60.727 E23.71201
G1 X49.664 Y59.919 E23.75734
G1 X50.231 Y59.215 E23.79943
G1 X50.956 Y58.463 E23.84807
G0 F6000 X51.218 Y58.765
G1 F1200 X51.927 Y58.15 E23.89178
G1 X52.659 Y57.62 E23.93386
G1 X53.495 Y57.121 E23.97919
G1 X54.34 Y56.714 E24.02286
G1 X55.219 Y56.383 E24.0666
G1 X56.122 Y56.132 E24.11024
G1 X57.05 Y55.96 E24.15419
G1 X58.189 Y55.864 E24.20741
G1 X58.821 Y55.85 E24.23685
G1 X67.398 Y55.85 E24.63623
G1 X68.254 Y55.861 E24.67609
G1 X68.842 Y55.887 E24.7035
G1 X69.829 Y55.957 E24.74957
G1 X70.881 Y56.047 E24.79874
G1 X73.359 Y56.187 E24.91431
G1 X77.308 Y56.27 E25.09823
G1 X157.765 Y56.27 E28.84465
G1 X160.36 Y56.233 E28.96549
G1 X162.91 Y56.125 E29.08434
G1 X166.002 Y55.898 E29.2287
G1 X166.614 Y55.863 E29.25725
G1 X167.23 Y55.85 E29.28594
G1 X175.945 Y55.851 E29.69174
G1 X176.66 Y55.862 E29.72504
G1 X177.597 Y55.918 E29.76875
G1 X178.525 Y56.057 E29.81244
G1 X179.438 Y56.278 E29.85618
G1 X180.294 Y56.566 E29.89824
G1 X181.186 Y56.956 E29.94357
G1 X182.007 Y57.409 E29.98723
G1 X182.758 Y57.911 E30.02929
G1 X183.517 Y58.523 E30.07469
G1 X184.191 Y59.176 E30.11839
G1 X184.805 Y59.885 E30.16206
G1 X185.355 Y60.646 E30.20579
G1 X185.817 Y61.422 E30.24784
G1 X186.24 Y62.299 E30.29318
G1 X186.569 Y63.177 E30.33684
G1 X186.82 Y64.082 E30.38057
G1 X186.991 Y65.009 E30.42446
G1 X187.086 Y66.139 E30.47726
G1 X187.1 Y66.78 E30.50712
G1 X187.099 Y94.009 E31.77502
G1 X187.081 Y95.019 E31.82205
G1 X186.989 Y96.895 E31.90951
G1 X186.917 Y99.422 E32.02723
G1 X186.917 Y101.942 E32.14457
G1 X186.989 Y104.532 E32.26522
G1 X187.083 Y106.383 E32.35152
G1 X187.096 Y106.901 E32.37565
G1 X187.1 Y128.862 E33.39824
G1 X187.081 Y130.019 E33.45213
G1 X186.989 Y131.895 E33.53958
G1 X186.917 Y134.422 E33.6573
G1 X186.917 Y136.942 E33.77464
G1 X186.989 Y139.532 E33.89529
G1 X187.083 Y141.383 E33.98159
G1 X187.096 Y141.902 E34.00577
G1 X187.1 Y169.113 E35.27282
G1 X187.088 Y170.003 E35.31427
G1 X187.033 Y170.939 E35.35793
G1 X186.894 Y171.868 E35.40167
G1 X186.673 Y172.78 E35.44536
G1 X186.373 Y173.669 E35.48905
G1 X185.996 Y174.528 E35.53273
G1 X185.563 Y175.321 E35.57481
G1 X185.022 Y176.13 E35.62012
G1 X184.455 Y176.834 E35.66221
G1 X183.779 Y177.535 E35.70756
G1 X183.07 Y178.15 E35.75126
G1 X182.339 Y178.68 E35.79331
G1 X181.503 Y179.179 E35.83864
G1 X180.657 Y179.586 E35.88236
G1 X179.779 Y179.916 E35.92603
G1 X178.874 Y180.168 E35.96978
G1 X177.948 Y180.339 E36.01362
G1 X176.807 Y180.435 E36.06694
G1 X175.797 Y180.465 E36.11399
G1 X173.186 Y180.58 E36.23569
G1 X170.631 Y180.764 E36.35497
G1 X168.086 Y181.019 E36.47407
G1 X166.887 Y181.163 E36.5303
G1 X165.8 Y181.237 E36.58103
G1 X165.147 Y181.247 E36.61144
G1 X164.195 Y181.237 E36.65577
G1 X163.259 Y181.181 E36.69944
G1 X162.443 Y181.063 E36.73783
G1 X161.87 Y180.957 E36.76496
G1 X159.301 Y180.52 E36.8863
G1 X156.797 Y180.165 E37.00407
G1 X154.273 Y179.881 E37.12234
G1 X151.755 Y179.668 E37.24
G1 X149.284 Y179.53 E37.35524
G1 X145.397 Y179.45 E37.53628
G1 X89.575 Y179.45 E40.13558
G1 X86.98 Y179.487 E40.25643
G1 X84.412 Y179.596 E40.37611
G1 X81.924 Y179.772 E40.49225
G1 X79.432 Y180.019 E40.60886
G1 X76.869 Y180.347 E40.72918
G1 X74.38 Y180.739 E40.8465
G1 X72.553 Y181.069 E40.93295
G1 X71.609 Y181.195 E40.9773
G1 X70.839 Y181.237 E41.01321
G1 X69.895 Y181.247 E41.05717
G1 X69.295 Y181.237 E41.08511
G1 X68.288 Y181.171 E41.1321
G1 X65.493 Y180.856 E41.26307
G1 X62.947 Y180.641 E41.38205
G1 X60.457 Y180.503 E41.49817
G1 X58.178 Y180.435 E41.60434
G1 X57.242 Y180.364 E41.64804
G1 X56.351 Y180.218 E41.69009
G1 X55.408 Y179.975 E41.73543
G1 X54.524 Y179.662 E41.7791
G1 X53.67 Y179.271 E41.82283
G1 X52.855 Y178.806 E41.86653
G1 X52.112 Y178.292 E41.9086
G1 X51.364 Y177.669 E41.95392
G1 X50.7 Y177.006 E41.99762
G1 X50.096 Y176.287 E42.04134
G1 X49.559 Y175.518 E42.08502
G1 X49.108 Y174.735 E42.12709
G1 X48.712 Y173.884 E42.1708
G1 X48.382 Y172.967 E42.21618
G1 X48.146 Y172.06 E42.25982
G1 X47.989 Y171.133 E42.3036
G1 X47.915 Y170.152 E42.34941
G1 X47.9 Y169.504 E42.37959
G1 X47.901 Y142.291 E43.64674
G1 X47.919 Y141.288 E43.69345
G1 X48.014 Y139.334 E43.78454
G1 X48.083 Y136.801 E43.90254
G1 X48.081 Y134.271 E44.02034
G1 X48.006 Y131.703 E44.13997
G1 X47.929 Y130.273 E44.20665
G1 X47.904 Y129.4 E44.24732
G1 X47.9 Y107.437 E45.27001
G1 X47.919 Y106.288 E45.32352
G1 X48.014 Y104.334 E45.41461
G1 X48.083 Y101.801 E45.5326
G1 X48.081 Y99.271 E45.65041
G1 X48.006 Y96.703 E45.77004
G1 X47.929 Y95.273 E45.83672
G1 X47.904 Y94.399 E45.87744
G1 X47.9 Y67.12 E47.14766
G1 X47.911 Y66.298 E47.18594
G1 X47.966 Y65.361 E47.22965
G1 X48.105 Y64.433 E47.27334
G1 X48.325 Y63.521 E47.31702
G1 X48.625 Y62.631 E47.36076
G1 X49.002 Y61.772 E47.40444
G1 X49.453 Y60.95 E47.4481
G1 X49.976 Y60.17 E47.49183
G1 X50.543 Y59.466 E47.53392
G1 X51.218 Y58.765 E47.57923
G0 F6000 X51.481 Y59.067
G1 F1200 X52.162 Y58.474 E47.62128
G1 X52.894 Y57.944 E47.66336
G1 X53.669 Y57.481 E47.7054
G1 X54.482 Y57.088 E47.74745
G1 X55.327 Y56.768 E47.78952
G1 X56.196 Y56.525 E47.83154
G1 X57.084 Y56.359 E47.8736
G1 X58.223 Y56.263 E47.92683
G1 X58.83 Y56.25 E47.9551
G1 X67.393 Y56.25 E48.35383
G1 X68.237 Y56.261 E48.39313
G1 X68.814 Y56.286 E48.42002
G1 X69.795 Y56.356 E48.46582
G1 X70.847 Y56.445 E48.51498
G1 X73.351 Y56.587 E48.63176
G1 X77.3 Y56.67 E48.81568
G1 X157.771 Y56.67 E52.56275
G1 X160.377 Y56.633 E52.68411
G1 X162.927 Y56.525 E52.80296
G1 X166.031 Y56.297 E52.94788
G1 X166.623 Y56.263 E52.97549
G1 X167.23 Y56.25 E53.00376
G1 X175.939 Y56.251 E53.40929
G1 X176.637 Y56.261 E53.44179
G1 X177.539 Y56.314 E53.48387
G1 X178.432 Y56.446 E53.5259
G1 X179.31 Y56.657 E53.56795
G1 X180.166 Y56.945 E53.61
G1 X180.993 Y57.307 E53.65204
G1 X181.785 Y57.742 E53.69412
G1 X182.536 Y58.244 E53.73618
G1 X183.239 Y58.811 E53.77823
G1 X183.889 Y59.438 E53.82029
G1 X184.481 Y60.12 E53.86234
G1 X185.011 Y60.851 E53.90438
G1 X185.473 Y61.627 E53.94643
G1 X185.866 Y62.44 E53.98848
G1 X186.184 Y63.285 E54.03052
G1 X186.427 Y64.155 E54.07258
G1 X186.592 Y65.043 E54.11464
G1 X186.687 Y66.173 E54.16744
G1 X186.7 Y66.78 E54.19572
G1 X186.699 Y94.002 E55.46329
G1 X186.681 Y94.999 E55.50972
G1 X186.589 Y96.875 E55.59718
G1 X186.517 Y99.411 E55.71531
G1 X186.517 Y101.942 E55.83317
G1 X186.59 Y104.543 E55.95433
G1 X186.683 Y106.393 E56.04058
G1 X186.696 Y106.901 E56.06424
G1 X186.7 Y128.855 E57.08651
G1 X186.681 Y129.999 E57.13979
G1 X186.589 Y131.875 E57.22725
G1 X186.517 Y134.411 E57.34538
G1 X186.517 Y136.942 E57.46324
G1 X186.59 Y139.543 E57.5844
G1 X186.683 Y141.393 E57.67065
G1 X186.696 Y141.902 E57.69436
G1 X186.7 Y169.108 E58.96118
G1 X186.689 Y169.98 E59.00179
G1 X186.637 Y170.881 E59.04382
G1 X186.505 Y171.775 E59.0859
G1 X186.294 Y172.653 E59.12794
G1 X186.007 Y173.509 E59.16998
G1 X185.645 Y174.336 E59.21202
G1 X185.212 Y175.129 E59.25409
G1 X184.71 Y175.879 E59.29611
G1 X184.143 Y176.583 E59.3382
G1 X183.517 Y177.233 E59.38023
G1 X182.835 Y177.826 E59.42231
G1 X182.104 Y178.356 E59.46435
G1 X181.329 Y178.819 E59.50639
G1 X180.516 Y179.212 E59.54844
G1 X179.671 Y179.531 E59.59049
G1 X178.801 Y179.775 E59.63257
G1 X177.914 Y179.94 E59.67458
G1 X176.795 Y180.035 E59.72687
G1 X175.779 Y180.065 E59.7742
G1 X173.168 Y180.18 E59.8959
G1 X170.598 Y180.365 E60.01588
G1 X168.046 Y180.621 E60.13531
G1 X166.86 Y180.764 E60.19093
G1 X165.794 Y180.837 E60.24068
G1 X165.151 Y180.847 E60.27063
G1 X164.218 Y180.838 E60.31408
G1 X163.316 Y180.785 E60.35615
G1 X162.516 Y180.67 E60.39378
G1 X161.943 Y180.564 E60.42092
G1 X159.357 Y180.124 E60.54306
G1 X156.853 Y179.769 E60.66083
G1 X154.307 Y179.482 E60.78013
G1 X151.789 Y179.27 E60.89779
G1 X149.292 Y179.13 E61.01425
G1 X145.405 Y179.05 E61.19528
G1 X89.569 Y179.05 E63.79524
G1 X86.963 Y179.087 E63.9166
G1 X84.395 Y179.196 E64.03628
G1 X81.893 Y179.373 E64.15307
G1 X79.381 Y179.622 E64.27062
G1 X76.818 Y179.95 E64.39093
G1 X74.309 Y180.345 E64.5092
G1 X72.482 Y180.675 E64.59565
G1 X71.587 Y180.796 E64.63771
G1 X70.835 Y180.837 E64.67277
G1 X69.901 Y180.847 E64.71627
G1 X69.321 Y180.838 E64.74328
G1 X68.333 Y180.774 E64.78938
G1 X65.527 Y180.457 E64.92087
G1 X62.981 Y180.243 E65.03984
G1 X60.469 Y180.103 E65.15699
G1 X58.208 Y180.036 E65.26232
G1 X57.307 Y179.969 E65.30439
G1 X56.416 Y179.823 E65.34643
G1 X55.541 Y179.598 E65.3885
G1 X54.69 Y179.298 E65.43052
G1 X53.868 Y178.923 E65.47259
G1 X53.083 Y178.477 E65.51463
G1 X52.34 Y177.963 E65.5567
G1 X51.646 Y177.385 E65.59875
G1 X51.006 Y176.748 E65.6408
G1 X50.424 Y176.058 E65.68283
G1 X49.906 Y175.318 E65.72489
G1 X49.455 Y174.535 E65.76697
G1 X49.075 Y173.716 E65.80901
G1 X48.769 Y172.866 E65.85108
G1 X48.54 Y171.993 E65.8931
G1 X48.388 Y171.103 E65.93514
G1 X48.315 Y170.143 E65.97997
G1 X48.3 Y169.504 E66.00974
G1 X48.301 Y142.298 E67.27656
G1 X48.319 Y141.305 E67.32281
G1 X48.362 Y140.288 E67.37021
G1 X48.414 Y139.345 E67.41418
G1 X48.483 Y136.812 E67.53217
G1 X48.481 Y134.271 E67.65049
G1 X48.405 Y131.691 E67.77068
G1 X48.329 Y130.261 E67.83736
G1 X48.304 Y129.4 E67.87747
G1 X48.3 Y107.444 E68.89983
G1 X48.319 Y106.305 E68.95288
G1 X48.362 Y105.288 E69.00028
G1 X48.414 Y104.345 E69.04425
G1 X48.483 Y101.812 E69.16224
G1 X48.481 Y99.271 E69.28056
G1 X48.405 Y96.691 E69.40075
G1 X48.329 Y95.261 E69.46743
G1 X48.304 Y94.399 E69.50759
G1 X48.3 Y67.125 E70.77758
G1 X48.31 Y66.321 E70.81502
G1 X48.362 Y65.419 E70.85709
G1 X48.494 Y64.526 E70.89912
G1 X48.704 Y63.648 E70.94116
G1 X48.991 Y62.791 E70.98324
G1 X49.353 Y61.964 E71.02528
G1 X49.786 Y61.172 E71.06731
G1 X50.288 Y60.421 E71.10937
G1 X50.855 Y59.717 E71.15146
G1 X51.481 Y59.067 E71.19349
G1 F1500 E64.69349
G0 F6000 X58.7 Y66.65
G1 F1500 E71.19349
G1 F1200 X67.9 Y66.65 E71.62188
G1 X67.9 Y169.893 E76.4293
G1 X67.653 Y169.868 E76.44086
G1 X67.64 Y169.867 E76.44147
G1 X67.191 Y169.85 E76.46239
G1 X67.145 Y169.831 E76.46471
G1 X67.106 Y169.819 E76.46661
G1 X66.662 Y169.734 E76.48766
G1 X66.646 Y169.731 E76.48842
G1 X66.032 Y169.664 E76.51718
G1 X66.017 Y169.663 E76.51788
G1 X65.701 Y169.652 E76.5326
G1 X65.694 Y169.652 E76.53293
G1 X58.7 Y169.65 E76.8586
