;FLAVOR:Marlin
;TIME:3141
;Filament used: 3.45444m
;Layer height: 0.28
;MINX:92.882
;MINY:62.85
;MINZ:0.28
;MAXX:140.6
;MAXY:172.15
;MAXZ:26.44
;Generated with Cura_SteamEngine 5.4.0
M140 S95
M105
M190 S95
M104 S255
M105
M109 S255
M82 ;absolute extrusion mode
M201 X500.00 Y500.00 Z100.00 E5000.00 ;Setup machine max acceleration
M203 X500.00 Y500.00 Z10.00 E50.00 ;Setup machine max feedrate
M204 P500.00 R1000.00 T500.00 ;Setup Print/Retract/Travel acceleration
M205 X8.00 Y8.00 Z0.40 E5.00 ;Setup Jerk
M220 S100 ;Reset Feedrate
M221 S100 ;Reset Flowrate

G28 ;Home

G92 E0 ;Reset Extruder
G1 Z2.0 F3000 ;Move Z Axis up
G1 X10.1 Y20 Z0.28 F5000.0 ;Move to start position
G1 X10.1 Y200.0 Z0.28 F1500.0 E15 ;Draw the first line
G1 X10.4 Y200.0 Z0.28 F5000.0 ;Move to side a little
G1 X10.4 Y20 Z0.28 F1500.0 E30 ;Draw the second line
G92 E0 ;Reset Extruder
G1 Z2.0 F3000 ;Move Z Axis up

G92 E0
G92 E0
G1 F1500 E-6.5
;LAYER_COUNT:90
;LAYER:0
M107
G0 F6000 X96.228 Y71.651 Z0.28
;TYPE:SKIRT
G1 F1500 E0
G1 F1200 X96.791 Y70.899 E0.04374
G1 X97.466 Y70.147 E0.0908
G1 X98.177 Y69.484 E0.13606
G1 X98.917 Y68.906 E0.17979
G1 X99.765 Y68.358 E0.2268
G1 X100.603 Y67.916 E0.27092
G1 X101.935 Y67.387 E0.33765
G1 X103.146 Y66.997 E0.39689
G1 X105.601 Y66.167 E0.51757
G1 X107.951 Y65.297 E0.63425
G1 X110.288 Y64.355 E0.75158
G1 X111.872 Y63.689 E0.83159
G1 X112.72 Y63.379 E0.87363
G1 X113.73 Y63.11 E0.9223
G1 X114.694 Y62.945 E0.96784
G1 X115.755 Y62.863 E1.01739
G1 X116.362 Y62.85 E1.04566
G1 X120.354 Y62.85 E1.23155
G1 X121.239 Y62.863 E1.27276
G1 X122.21 Y62.922 E1.31806
G1 X123.174 Y63.068 E1.36346
G1 X124.121 Y63.299 E1.40885
G1 X125.045 Y63.613 E1.45429
G1 X125.989 Y64.033 E1.5024
G1 X126.872 Y64.476 E1.5484
G1 X127.576 Y64.843 E1.58537
G1 X129.844 Y65.946 E1.7028
G1 X132.118 Y66.976 E1.81905
G1 X133.027 Y67.356 E1.86492
G1 X134.015 Y67.787 E1.91512
G1 X134.888 Y68.218 E1.96045
G1 X135.72 Y68.724 E2.00579
G1 X136.503 Y69.301 E2.05108
G1 X137.234 Y69.947 E2.09651
G1 X137.903 Y70.654 E2.14183
G1 X138.507 Y71.416 E2.18711
G1 X139.025 Y72.2 E2.23086
G1 X139.502 Y73.089 E2.27784
G1 X139.886 Y73.985 E2.32323
G1 X140.169 Y74.842 E2.36526
G1 X140.407 Y75.857 E2.4138
G1 X140.535 Y76.752 E2.4559
G1 X140.587 Y77.556 E2.49342
G1 X140.6 Y78.18 E2.52248
G1 X140.599 Y156.565 E6.17241
G1 X140.587 Y157.329 E6.20799
G1 X140.529 Y158.301 E6.25333
G1 X140.383 Y159.265 E6.29873
G1 X140.152 Y160.211 E6.34408
G1 X139.84 Y161.133 E6.3894
G1 X139.447 Y162.024 E6.43475
G1 X138.978 Y162.876 E6.48003
G1 X138.476 Y163.627 E6.5221
G1 X137.819 Y164.441 E6.57081
G1 X137.141 Y165.141 E6.61618
G1 X136.405 Y165.777 E6.66148
G1 X135.674 Y166.307 E6.70352
G1 X134.774 Y166.844 E6.75232
G1 X133.865 Y167.278 E6.79923
G1 X130.897 Y168.564 E6.94984
G1 X128.666 Y169.612 E7.06462
G1 X125.987 Y170.968 E7.20443
G1 X125.098 Y171.367 E7.24981
G1 X124.178 Y171.685 E7.29513
G1 X123.233 Y171.92 E7.34048
G1 X122.273 Y172.071 E7.38573
G1 X121.377 Y172.135 E7.42756
G1 X120.72 Y172.15 E7.45816
G1 X116.586 Y172.149 E7.65065
G1 X115.843 Y172.136 E7.68525
G1 X114.87 Y172.075 E7.73065
G1 X113.908 Y171.928 E7.77597
G1 X113.03 Y171.716 E7.81802
G1 X111.789 Y171.281 E7.87926
G1 X109.035 Y170.124 E8.01835
G1 X106.672 Y169.213 E8.13628
G1 X104.341 Y168.389 E8.2514
G1 X101.897 Y167.599 E8.371
G1 X100.984 Y167.256 E8.41642
G1 X100.106 Y166.833 E8.4618
G1 X99.27 Y166.335 E8.50711
G1 X98.508 Y165.787 E8.55081
G1 X97.744 Y165.127 E8.59782
G1 X97.068 Y164.427 E8.64314
G1 X96.456 Y163.67 E8.68846
G1 X95.931 Y162.891 E8.73221
G1 X95.444 Y162.007 E8.7792
G1 X95.052 Y161.116 E8.82453
G1 X94.74 Y160.193 E8.8699
G1 X94.526 Y159.316 E8.91193
G1 X94.336 Y157.909 E8.97804
G1 X94.117 Y154.767 E9.1247
G1 X93.866 Y152.277 E9.24123
G1 X93.541 Y149.775 E9.35872
G1 X93.029 Y146.577 E9.50952
G1 X92.895 Y145.144 E9.57654
G1 X92.882 Y144.52 E9.6056
G1 X92.883 Y136.486 E9.9797
G1 X92.896 Y135.741 E10.0144
G1 X92.954 Y134.783 E10.05909
G1 X93.026 Y134.242 E10.0845
G1 X93.213 Y133.052 E10.14059
G1 X93.578 Y130.487 E10.26123
G1 X93.859 Y128.013 E10.37717
G1 X94.078 Y125.473 E10.49588
G1 X94.216 Y123.015 E10.61052
G1 X94.291 Y120.423 E10.73126
G1 X94.3 Y119.105 E10.79264
G1 X94.3 Y115.846 E10.94439
G1 X94.263 Y113.251 E11.06524
G1 X94.154 Y110.706 E11.18385
G1 X93.979 Y108.226 E11.29962
G1 X93.734 Y105.759 E11.41506
G1 X93.404 Y103.181 E11.53608
G1 X93.017 Y100.682 E11.65383
G1 X92.895 Y99.344 E11.71639
G1 X92.882 Y98.72 E11.74545
G1 X92.883 Y90.67 E12.12029
G1 X92.896 Y89.938 E12.15438
G1 X92.954 Y88.98 E12.19907
G1 X93.026 Y88.445 E12.22421
G1 X93.168 Y87.545 E12.26664
G1 X93.378 Y86.316 E12.32469
G1 X93.726 Y83.861 E12.44015
G1 X94.004 Y81.401 E12.55543
G1 X94.227 Y78.795 E12.67722
G1 X94.335 Y77.108 E12.75593
G1 X94.434 Y76.21 E12.798
G1 X94.64 Y75.185 E12.84668
G1 X94.918 Y74.252 E12.89202
G1 X95.277 Y73.348 E12.93731
G1 X95.698 Y72.509 E12.98102
G1 X96.228 Y71.651 E13.02798
G0 F6000 X96.549 Y71.89
G1 F1200 X97.089 Y71.166 E13.07003
G1 X97.739 Y70.439 E13.11544
G1 X98.424 Y69.799 E13.1591
G1 X99.135 Y69.242 E13.20115
G1 X99.952 Y68.712 E13.2465
G1 X100.79 Y68.27 E13.29062
G1 X102.058 Y67.768 E13.35412
G1 X103.269 Y67.378 E13.41336
G1 X105.729 Y66.546 E13.53428
G1 X108.101 Y65.668 E13.65205
G1 X110.438 Y64.726 E13.76938
G1 X112.009 Y64.065 E13.84875
G1 X112.857 Y63.755 E13.89079
G1 X113.798 Y63.504 E13.93614
G1 X114.725 Y63.344 E13.97994
G1 X115.764 Y63.263 E14.02847
G1 X116.371 Y63.25 E14.05674
G1 X120.348 Y63.25 E14.24192
G1 X121.215 Y63.262 E14.2823
G1 X122.151 Y63.318 E14.32596
G1 X123.08 Y63.457 E14.3697
G1 X123.993 Y63.678 E14.41344
G1 X124.883 Y63.979 E14.45719
G1 X125.809 Y64.39 E14.50436
G1 X126.687 Y64.831 E14.55012
G1 X127.401 Y65.203 E14.5876
G1 X129.669 Y66.306 E14.70504
G1 X131.964 Y67.345 E14.82234
G1 X132.867 Y67.723 E14.86793
G1 X133.839 Y68.146 E14.91729
G1 X134.681 Y68.56 E14.96098
G1 X135.483 Y69.046 E15.00464
G1 X136.239 Y69.601 E15.04831
G1 X136.944 Y70.222 E15.09206
G1 X137.59 Y70.903 E15.13577
G1 X138.173 Y71.637 E15.17942
G1 X138.691 Y72.421 E15.22317
G1 X139.135 Y73.247 E15.26684
G1 X139.506 Y74.11 E15.31058
G1 X139.789 Y74.967 E15.3526
G1 X140.011 Y75.914 E15.3979
G1 X140.139 Y76.809 E15.44
G1 X140.187 Y77.564 E15.47522
G1 X140.2 Y78.18 E15.50391
G1 X140.199 Y156.559 E19.15357
G1 X140.188 Y157.306 E19.18835
G1 X140.133 Y158.242 E19.23201
G1 X139.994 Y159.171 E19.27575
G1 X139.773 Y160.083 E19.31945
G1 X139.474 Y160.972 E19.36312
G1 X139.096 Y161.832 E19.40687
G1 X138.645 Y162.654 E19.45052
G1 X138.143 Y163.405 E19.49259
G1 X137.531 Y164.163 E19.53795
G1 X136.879 Y164.839 E19.58168
G1 X136.17 Y165.453 E19.62536
G1 X135.439 Y165.983 E19.6674
G1 X134.602 Y166.483 E19.7128
G1 X133.706 Y166.911 E19.75904
G1 X130.738 Y168.197 E19.90965
G1 X128.485 Y169.255 E20.02555
G1 X125.823 Y170.603 E20.16449
G1 X124.967 Y170.989 E20.20822
G1 X124.081 Y171.297 E20.2519
G1 X123.17 Y171.525 E20.29562
G1 X122.244 Y171.672 E20.33928
G1 X121.368 Y171.735 E20.38018
G1 X120.72 Y171.75 E20.41036
G1 X116.593 Y171.749 E20.60253
G1 X115.867 Y171.737 E20.63634
G1 X114.93 Y171.68 E20.68005
G1 X114.002 Y171.539 E20.72376
G1 X113.124 Y171.327 E20.76582
G1 X111.944 Y170.912 E20.82406
G1 X109.19 Y169.755 E20.96316
G1 X106.816 Y168.84 E21.08163
G1 X104.464 Y168.008 E21.1978
G1 X102.037 Y167.224 E21.31656
G1 X101.157 Y166.895 E21.3603
G1 X100.31 Y166.489 E21.40404
G1 X99.504 Y166.01 E21.4477
G1 X98.742 Y165.462 E21.4914
G1 X98.031 Y164.849 E21.53512
G1 X97.379 Y164.175 E21.57878
G1 X96.788 Y163.446 E21.62248
G1 X96.263 Y162.667 E21.66622
G1 X95.81 Y161.845 E21.70993
G1 X95.431 Y160.987 E21.7536
G1 X95.129 Y160.098 E21.79732
G1 X94.915 Y159.221 E21.83936
G1 X94.735 Y157.881 E21.90231
G1 X94.516 Y154.739 E22.04897
G1 X94.264 Y152.237 E22.16607
G1 X93.938 Y149.724 E22.28406
G1 X93.424 Y146.514 E22.43544
G1 X93.295 Y145.136 E22.49988
G1 X93.282 Y144.52 E22.52857
G1 X93.283 Y136.493 E22.90234
G1 X93.295 Y135.765 E22.93625
G1 X93.351 Y134.835 E22.97963
G1 X93.421 Y134.304 E23.00457
G1 X93.608 Y133.114 E23.06066
G1 X93.974 Y130.543 E23.18159
G1 X94.258 Y128.047 E23.29856
G1 X94.476 Y125.507 E23.41727
G1 X94.616 Y123.027 E23.53293
G1 X94.691 Y120.435 E23.65368
G1 X94.7 Y119.108 E23.71547
G1 X94.7 Y115.846 E23.86736
G1 X94.663 Y113.245 E23.98849
G1 X94.554 Y110.689 E24.10761
G1 X94.378 Y108.198 E24.22389
G1 X94.131 Y105.708 E24.34041
G1 X93.801 Y103.13 E24.46143
G1 X93.415 Y100.646 E24.57848
G1 X93.295 Y99.336 E24.63974
G1 X93.282 Y98.72 E24.66843
G1 X93.283 Y90.677 E25.04294
G1 X93.295 Y89.962 E25.07624
G1 X93.351 Y89.033 E25.11958
G1 X93.421 Y88.507 E25.14429
G1 X93.562 Y87.612 E25.18647
G1 X93.772 Y86.383 E25.24453
G1 X94.122 Y83.917 E25.36051
G1 X94.403 Y81.435 E25.47682
G1 X94.625 Y78.829 E25.59861
G1 X94.733 Y77.152 E25.67686
G1 X94.832 Y76.254 E25.71892
G1 X95.023 Y75.299 E25.76427
G1 X95.29 Y74.399 E25.80799
G1 X95.635 Y73.527 E25.85165
G1 X96.056 Y72.688 E25.89536
G1 X96.549 Y71.89 E25.93904
G0 F6000 X96.87 Y72.129
G1 F1200 X97.41 Y71.405 E25.9811
G1 X98.012 Y70.731 E26.02318
G1 X98.671 Y70.114 E26.06521
G1 X99.382 Y69.557 E26.10727
G1 X100.139 Y69.065 E26.14931
G1 X100.937 Y68.642 E26.19137
G1 X102.181 Y68.149 E26.25367
G1 X103.392 Y67.759 E26.31292
G1 X105.857 Y66.925 E26.43409
G1 X108.24 Y66.043 E26.55241
G1 X110.593 Y65.095 E26.67053
G1 X112.146 Y64.441 E26.749
G1 X112.994 Y64.131 E26.79104
G1 X113.867 Y63.898 E26.83311
G1 X114.756 Y63.743 E26.87513
G1 X115.773 Y63.663 E26.92263
G1 X116.38 Y63.65 E26.9509
G1 X120.343 Y63.65 E27.13544
G1 X121.192 Y63.661 E27.17497
G1 X122.093 Y63.714 E27.217
G1 X122.987 Y63.846 E27.25908
G1 X123.865 Y64.057 E27.30113
G1 X124.721 Y64.345 E27.34318
G1 X125.629 Y64.747 E27.38942
G1 X126.502 Y65.186 E27.43492
G1 X127.226 Y65.563 E27.47293
G1 X129.494 Y66.666 E27.59037
G1 X131.81 Y67.714 E27.70874
G1 X132.708 Y68.09 E27.75407
G1 X133.663 Y68.505 E27.80255
G1 X134.474 Y68.902 E27.8446
G1 X135.247 Y69.369 E27.88665
G1 X135.975 Y69.902 E27.92867
G1 X136.654 Y70.498 E27.97073
G1 X137.277 Y71.152 E28.01279
G1 X137.84 Y71.858 E28.05484
G1 X138.339 Y72.611 E28.0969
G1 X138.768 Y73.405 E28.13893
G1 X139.126 Y74.235 E28.18102
G1 X139.409 Y75.092 E28.22304
G1 X139.615 Y75.971 E28.26508
G1 X139.743 Y76.866 E28.30718
G1 X139.787 Y77.573 E28.34016
G1 X139.8 Y78.18 E28.36844
G1 X139.799 Y156.554 E32.01786
G1 X139.789 Y157.283 E32.05181
G1 X139.737 Y158.184 E32.09383
G1 X139.605 Y159.078 E32.13591
G1 X139.394 Y159.956 E32.17796
G1 X139.107 Y160.812 E32.22
G1 X138.745 Y161.64 E32.26208
G1 X138.312 Y162.432 E32.30411
G1 X137.81 Y163.183 E32.34617
G1 X137.243 Y163.886 E32.38822
G1 X136.617 Y164.537 E32.43028
G1 X135.935 Y165.129 E32.47233
G1 X135.204 Y165.659 E32.51437
G1 X134.429 Y166.122 E32.55641
G1 X133.547 Y166.544 E32.60194
G1 X130.579 Y167.83 E32.75256
G1 X128.304 Y168.898 E32.86958
G1 X125.658 Y170.239 E33.00771
G1 X124.835 Y170.611 E33.04977
G1 X123.983 Y170.909 E33.0918
G1 X123.107 Y171.13 E33.13386
G1 X122.215 Y171.273 E33.17593
G1 X121.359 Y171.335 E33.21589
G1 X120.72 Y171.35 E33.24566
G1 X116.599 Y171.349 E33.43755
G1 X115.891 Y171.338 E33.47052
G1 X114.989 Y171.284 E33.51259
G1 X114.096 Y171.15 E33.55464
G1 X113.218 Y170.938 E33.5967
G1 X112.099 Y170.543 E33.65196
G1 X109.345 Y169.386 E33.79105
G1 X106.96 Y168.467 E33.91007
G1 X104.587 Y167.627 E34.02728
G1 X102.176 Y166.849 E34.14525
G1 X101.329 Y166.534 E34.18733
G1 X100.514 Y166.145 E34.22938
G1 X99.737 Y165.685 E34.27142
G1 X99.003 Y165.159 E34.31347
G1 X98.318 Y164.57 E34.35554
G1 X97.689 Y163.922 E34.39759
G1 X97.119 Y163.222 E34.43962
G1 X96.613 Y162.473 E34.48171
G1 X96.176 Y161.683 E34.52375
G1 X95.81 Y160.858 E34.56578
G1 X95.518 Y160.003 E34.60785
G1 X95.304 Y159.126 E34.64988
G1 X95.134 Y157.853 E34.70969
G1 X94.915 Y154.711 E34.85634
G1 X94.662 Y152.197 E34.974
G1 X94.335 Y149.673 E35.09251
G1 X93.819 Y146.451 E35.24445
G1 X93.695 Y145.127 E35.30637
G1 X93.682 Y144.52 E35.33464
G1 X93.683 Y136.499 E35.70813
G1 X93.694 Y135.789 E35.7412
G1 X93.748 Y134.887 E35.78327
G1 X93.816 Y134.366 E35.80774
G1 X94.003 Y133.176 E35.86383
G1 X94.37 Y130.599 E35.98504
G1 X94.657 Y128.081 E36.10305
G1 X94.874 Y125.541 E36.22175
G1 X95.016 Y123.039 E36.33844
G1 X95.091 Y120.447 E36.45919
G1 X95.1 Y119.111 E36.5214
G1 X95.1 Y115.846 E36.67343
G1 X95.063 Y113.239 E36.79483
G1 X94.954 Y110.672 E36.91447
G1 X94.777 Y108.17 E37.03127
G1 X94.528 Y105.657 E37.14886
G1 X94.198 Y103.079 E37.26988
G1 X93.813 Y100.609 E37.38628
G1 X93.695 Y99.327 E37.44623
G1 X93.682 Y98.72 E37.4745
G1 X93.683 Y90.683 E37.84873
G1 X93.694 Y89.986 E37.88119
G1 X93.748 Y89.085 E37.92322
G1 X93.816 Y88.569 E37.94746
G1 X93.956 Y87.679 E37.98941
G1 X94.166 Y86.45 E38.04747
G1 X94.518 Y83.973 E38.16397
G1 X94.802 Y81.469 E38.28131
G1 X95.023 Y78.863 E38.40309
G1 X95.131 Y77.196 E38.48088
G1 X95.23 Y76.298 E38.52294
G1 X95.407 Y75.412 E38.56502
G1 X95.662 Y74.546 E38.60705
G1 X95.993 Y73.706 E38.64909
G1 X96.397 Y72.898 E38.69116
G1 X96.87 Y72.129 E38.7332
G1 F1500 E32.2332
G0 F6000 X104.082 Y90.35
G1 F1500 E38.7332
G1 F1200 X107.6 Y90.35 E38.89701
G1 X107.6 Y98.85 E39.29281
G1 X104.082 Y98.85 E39.45662
G1 X104.082 Y90.35 E39.85241
G0 F6000 X104.482 Y90.75
G1 F1200 X107.2 Y90.75 E39.97898
G1 X107.2 Y98.45 E40.33752
G1 X104.482 Y98.45 E40.46408
G1 X104.482 Y90.75 E40.82263
G0 F6000 X104.882 Y91.15
G1 F1200 X106.8 Y91.15 E40.91194
G1 X106.8 Y98.05 E41.23323
G1 X104.882 Y98.05 E41.32254
G1 X104.882 Y91.15 E41.64383
G0 F6000 X105.282 Y91.55
G1 F1200 X106.4 Y91.55 E41.69589
G1 X106.4 Y97.65 E41.97993
G1 X105.282 Y97.65 E42.03199
G1 X105.282 Y91.55 E42.31603
G0 F6000 X105.682 Y91.95
G1 F1200 X106 Y91.95 E42.33084
G1 X106 Y97.25 E42.57763
G1 X105.682 Y97.25 E42.59244
G1 X105.682 Y91.95 E42.83923
G1 F1500 E36.33923
G0 F6000 X104.647 Y99.197
G0 X104.082 Y136.15
G1 F1500 E42.83923
G1 F1200 X107.6 Y136.15 E43.00304
G1 X107.6 Y144.65 E43.39884
G1 X104.082 Y144.65 E43.56265
G1 X104.082 Y136.15 E43.95844
G0 F6000 X104.482 Y136.55
G1 F1200 X107.2 Y136.55 E44.08501
G1 X107.2 Y144.25 E44.44355
G1 X104.482 Y144.25 E44.57011
G1 X104.482 Y136.55 E44.92866
G0 F6000 X104.882 Y136.95
G1 F1200 X106.8 Y136.95 E45.01797
G1 X106.8 Y143.85 E45.33926
G1 X104.882 Y143.85 E45.42857
G1 X104.882 Y136.95 E45.74986
G0 F6000 X105.282 Y137.35
G1 F1200 X106.4 Y137.35 E45.80192
G1 X106.4 Y143.45 E46.08596
G1 X105.282 Y143.45 E46.13802
G1 X105.282 Y137.35 E46.42206
G0 F6000 X105.682 Y137.75
G1 F1200 X106 Y137.75 E46.43687
G1 X106 Y143.05 E46.68366
G1 X105.682 Y143.05 E46.69847
G1 X105.682 Y137.75 E46.94526
G1 F1500 E40.44526
;MESH:Dice_v2 - BatteryHolder^Dice_v2-1.STL
G0 F6000 X105.714 Y135.815
G0 X106.225 Y134.575
;TYPE:WALL-INNER
G1 F1500 E46.94526
G1 F1371.4 X106.225 Y100.425 E48.33665
G1 X105.875 Y100.425 E48.35091
G1 X105.875 Y134.575 E49.74231
G1 X106.225 Y134.575 E49.75657
G0 F6000 X106.6 Y134.95
;TYPE:WALL-OUTER
G1 F1200 X106.6 Y100.05 E51.38166
G1 X105.5 Y100.05 E51.43288
G1 X105.5 Y134.95 E53.05797
G1 X106.6 Y134.95 E53.10919
G1 F1500 E46.60919
G0 F6000 X106.33 Y134.68
G0 X106.386 Y135.815
G0 X107.453 Y144.997
G0 X107.453 Y154.997
G0 X106.386 Y156.064
G0 X119.981 Y156.827
G0 X120.05 Y157.15
;TYPE:WALL-INNER
G1 F1500 E53.10919
G1 F1200 X120.216 Y156.65 E53.13372
G1 X116.884 Y156.65 E53.28888
G1 X117.05 Y157.15 E53.31341
G1 X117.05 Y160.15 E53.4531
G1 X120.05 Y160.15 E53.59279
G1 X120.05 Y157.15 E53.73249
G0 F6000 X119.981 Y156.827
G0 X106.33 Y156.12
G0 X106.348 Y156.102
G1 F1151.1 X106.23 Y155.75 E53.75051
G1 F1359.8 X106.225 Y146.225 E54.14192
G1 F1371.4 X105.875 Y146.225 E54.15618
G1 F1359.8 X105.878 Y155.78 E54.54882
G1 F1151.1 X105.94 Y156.271 E54.57284
